; G-Code generated by Simplify3D(TM) Version 2.2.0
; Dec 14, 2014 at 12:09:39 PM
; Settings Summary
;   processName,Process1
;   applyToModels,keystone_mount
;   profileLabel,Delta9000NoSupport245.fff
;   printMaterial,
;   printQuality,
;   extruderName,Primary Extruder
;   extruderToolheadNumber,0
;   extruderDiameter,0.6
;   extruderAutoWidth,0
;   extruderWidth,0.6
;   extrusionMultiplier,1
;   extruderUseRetract,1
;   extruderRetractionDistance,4.5
;   extruderExtraRestartDistance,0
;   extruderRetractionZLift,0.1
;   extruderRetractionSpeed,2400
;   extruderUseCoasting,0
;   extruderCoastingDistance,1
;   extruderUseWipe,0
;   extruderWipeDistance,5
;   primaryExtruder,0
;   layerHeight,0.1
;   topSolidLayers,6
;   bottomSolidLayers,6
;   perimeterOutlines,6
;   printPerimetersInsideOut,0
;   startPointOption,2
;   startPointOriginX,0
;   startPointOriginY,0
;   startPointOriginZ,300
;   sequentialIslands,0
;   spiralVaseMode,0
;   firstLayerHeightPercentage,110
;   firstLayerWidthPercentage,100
;   firstLayerUnderspeed,0.4
;   useRaft,0
;   raftExtruder,0
;   raftLayers,3
;   raftOffset,3
;   raftSeparationDistance,0.14
;   raftInfill,85
;   disableRaftBaseLayers,0
;   useSkirt,1
;   skirtExtruder,0
;   skirtLayers,1
;   skirtOutlines,3
;   skirtOffset,5.4
;   infillExtruder,0
;   externalInfillPattern,Rectilinear
;   infillPercentage,50
;   outlineOverlapPercentage,15
;   infillExtrusionWidthPercentage,100
;   minInfillLength,5
;   infillLayerInterval,1
;   randomInfillStartPoint,0
;   infillAngles,45,-45
;   generateSupport,0
;   supportExtruder,0
;   supportInfill,40
;   supportExtraInflation,0
;   denseSupportLayers,0
;   denseSupportInfill,75
;   supportLayerInterval,1
;   supportHorizontalPartOffset,0.3
;   supportUpperSeparationLayers,1
;   supportLowerSeparationLayers,1
;   supportGridSpacing,4
;   maxOverhangAngle,45
;   supportAngles,0
;   temperatureName,Primary Extruder,Heated Bed
;   temperatureNumber,0,1
;   temperatureSetpointCount,1,1
;   temperatureSetpointLayers,1,1
;   temperatureSetpointTemperatures,245,90
;   temperatureStabilizeAtStartup,1,0
;   temperatureHeatedBed,0,1
;   temperatureRelayBetweenLayers,1,0
;   temperatureRelayBetweenLoops,0,0
;   fanLayers,1
;   fanSpeeds,0
;   blipFanToFullPower,1
;   adjustSpeedForCooling,1
;   minSpeedLayerTime,15
;   minCoolingSpeedSlowdown,20
;   increaseFanForCooling,0
;   minFanLayerTime,60
;   maxCoolingFanSpeed,100
;   increaseFanForBridging,0
;   bridgingFanSpeed,100
;   use5D,1
;   relativeEdistances,0
;   allowEaxisZeroing,1
;   independentExtruderAxes,0
;   includeM10123,0
;   stickySupport,1
;   detectArcs,0
;   arcReplaceG2G3,0
;   arcRadialCompensation,1
;   gcodeXoffset,0
;   gcodeYoffset,0
;   gcodeZoffset,0
;   overrideMachineDefinition,0
;   machineTypeOverride,1
;   strokeXoverride,170
;   strokeYoverride,170
;   strokeZoverride,185
;   originOffsetXoverride,0
;   originOffsetYoverride,0
;   originOffsetZoverride,0
;   homeXdirOverride,0
;   homeYdirOverride,0
;   homeZdirOverride,1
;   flipXoverride,1
;   flipYoverride,1
;   flipZoverride,1
;   startingGcode,G28 ; home all axes
;   layerChangeGcode,
;   toolChangeGcode,
;   endingGcode,M104 S0 ; turn off extruder,M140 S0 ; turn off bed,G28 ; home axes,M84 ; disable motors
;   createX3G,0
;   celebration,0
;   celebrationSong,Random Song
;   createMB5G,0
;   postProcessing,
;   defaultSpeed,18000
;   outlineUnderspeed,0.5
;   solidInfillUnderspeed,1
;   supportUnderspeed,1
;   rapidXYspeed,18000
;   rapidZspeed,18000
;   minBridgingArea,50
;   bridgingExtrusionMultiplier,0.95
;   bridgingSpeedMultiplier,0.7
;   filamentDiameter,1.75
;   filamentPricePerKg,26
;   useMinPrintHeight,0
;   minPrintHeight,0
;   useMaxPrintHeight,0
;   maxPrintHeight,0
;   useDiaphragm,0
;   diaphragmLayerInterval,20
;   robustSlicing,1
;   mergeAllIntoSolid,0
;   onlyRetractWhenCrossingOutline,1
;   retractBetweenLayers,0
;   useRetractionMinTravel,1
;   retractionMinTravel,1.5
;   useRetractionOozeRate,0
;   retractionOozeRate,6000
;   onlyWipeOutlines,1
;   toolChangeRetractionDistance,0
;   toolChangeExtraRestartDistance,0
;   toolChangeRetractionSpeed,360
;   allowThinWallGapFill,1
;   thinWallAllowedOverlapPercentage,10
G90
M82
M106 S0
M140 S90
M104 S245 T0
M109 S245 T0
G28 ; home all axes
G92 E0
G1 E-4.5 F2400
G1 Z0.21 F18000
; layer 1, Z = 0.11
M105
T0
; tool H0.11 W0.6
G1 X23.985 Y22.15 F18000
G1 Z0.11 F18000
G1 E0 F720
G92 E0
G1 X-23.985 Y22.15 E1.3163 F6021
G1 X-24.536 Y21.922 E1.3327
G1 X-28.122 Y18.336 E1.4718
G1 X-28.35 Y17.785 E1.4882
G1 X-28.35 Y-17.785 E2.4642
G1 X-28.122 Y-18.336 E2.4806
G1 X-24.536 Y-21.922 E2.6197
G1 X-23.985 Y-22.15 E2.6361
G1 X23.985 Y-22.15 E3.9524
G1 X24.536 Y-21.922 E3.9687
G1 X28.122 Y-18.336 E4.1079
G1 X28.35 Y-17.785 E4.1242
G1 X28.35 Y17.785 E5.1003
G1 X28.122 Y18.336 E5.1166
G1 X24.536 Y21.922 E5.2558
G1 X23.985 Y22.15 E5.2721
G1 X23.866 Y21.55 F18000
G92 E0
G1 X-23.866 Y21.55 E1.3097 F6021
G1 X-24.197 Y21.413 E1.3196
G1 X-27.613 Y17.997 E1.4521
G1 X-27.75 Y17.666 E1.462
G1 X-27.75 Y-17.666 E2.4314
G1 X-27.613 Y-17.997 E2.4413
G1 X-24.197 Y-21.413 E2.5738
G1 X-23.866 Y-21.55 E2.5837
G1 X23.866 Y-21.55 E3.8934
G1 X24.197 Y-21.413 E3.9032
G1 X27.613 Y-17.997 E4.0358
G1 X27.75 Y-17.666 E4.0456
G1 X27.75 Y17.666 E5.0151
G1 X27.613 Y17.997 E5.0249
G1 X24.197 Y21.413 E5.1575
G1 X23.866 Y21.55 E5.1673
G1 X23.746 Y20.95 F18000
G92 E0
G1 X-23.746 Y20.95 E1.3032 F6021
G1 X-23.857 Y20.904 E1.3065
G1 X-27.104 Y17.657 E1.4325
G1 X-27.15 Y17.546 E1.4358
G1 X-27.15 Y-17.546 E2.3987
G1 X-27.104 Y-17.657 E2.402
G1 X-23.857 Y-20.904 E2.528
G1 X-23.746 Y-20.95 E2.5313
G1 X23.746 Y-20.95 E3.8345
G1 X23.857 Y-20.904 E3.8377
G1 X27.104 Y-17.657 E3.9638
G1 X27.15 Y-17.546 E3.967
G1 X27.15 Y17.546 E4.93
G1 X27.104 Y17.657 E4.9332
G1 X23.857 Y20.904 E5.0593
G1 X23.746 Y20.95 E5.0625
G92 E0
G1 E-4.5 F2400
G1 Z0.21 F18000
G1 X21.15 Y14.95 F18000
G1 Z0.11 F18000
G1 E0 F2400
G92 E0
G1 X-21.15 Y14.95 E1.1607 F3011
G1 X-21.15 Y-14.95 E1.9811
G1 X21.15 Y-14.95 E3.1418
G1 X21.15 Y14.95 E3.9623
G1 X20.55 Y14.35 F18000
G92 E0
G1 X-20.55 Y14.35 E1.1278 F3512
G1 X-20.55 Y-14.35 E1.9153
G1 X20.55 Y-14.35 E3.0431
G1 X20.55 Y14.35 E3.8306
G1 X19.95 Y13.75 F18000
G92 E0
G1 X-19.95 Y13.75 E1.0948 F4014
G1 X-19.95 Y-13.75 E1.8494
G1 X19.95 Y-13.75 E2.9443
G1 X19.95 Y13.75 E3.6989
G1 X19.35 Y13.15 F18000
G92 E0
G1 X-19.35 Y13.15 E1.0619 F4516
G1 X-19.35 Y-13.15 E1.7836
G1 X19.35 Y-13.15 E2.8455
G1 X19.35 Y-9.351 E2.9497
G1 X0.35 Y-9.351 E3.4711
G1 X0.35 Y11.351 E4.0391
G1 X19.35 Y11.351 E4.5605
G1 X19.35 Y13.15 E4.6099
G1 X18.75 Y12.55 F18000
G92 E0
G1 X-10.443 Y12.55 E0.8011 F5018
G1 X-7.357 Y10.768 E0.8988
G1 X-6.077 Y7.25 E1.0016
G1 X-7.357 Y3.732 E1.1043
G1 X-10.599 Y1.86 E1.207
G1 X-14.287 Y2.51 E1.3098
G1 X-16.693 Y5.378 E1.4125
G1 X-16.693 Y9.122 E1.5152
G1 X-14.287 Y11.99 E1.618
G1 X-13.596 Y12.112 E1.6372
G1 X-13.634 Y12.55 E1.6493
G1 X-18.75 Y12.55 E1.7897
G1 X-18.75 Y-12.55 E2.4784
G1 X18.75 Y-12.55 E3.5074
G1 X18.75 Y-9.951 E3.5787
G1 X-0.25 Y-9.951 E4.1
G1 X-0.25 Y11.951 E4.701
G1 X18.75 Y11.951 E5.2224
G1 X18.75 Y12.55 E5.2388
G1 X-9.314 Y9.126 F18000
G92 E0
G1 X-8.631 Y7.25 E0.0548 F3011
G1 X-9.314 Y5.374 E0.1096
G1 X-11.043 Y4.375 E0.1644
G1 X-13.01 Y4.722 E0.2192
G1 X-14.293 Y6.252 E0.274
G1 X-14.293 Y8.248 E0.3288
G1 X-13.01 Y9.778 E0.3836
G1 X-11.043 Y10.125 E0.4384
G1 X-9.314 Y9.126 E0.4931
G1 X-8.825 Y9.537 F18000
G92 E0
G1 X-7.992 Y7.25 E0.0668 F3512
G1 X-8.825 Y4.963 E0.1336
G1 X-10.932 Y3.746 E0.2003
G1 X-13.329 Y4.169 E0.2671
G1 X-14.893 Y6.033 E0.3339
G1 X-14.893 Y8.467 E0.4007
G1 X-13.329 Y10.331 E0.4674
G1 X-10.932 Y10.754 E0.5342
G1 X-8.825 Y9.537 E0.601
G1 X-8.335 Y9.947 F18000
G92 E0
G1 X-7.354 Y7.25 E0.0788 F4014
G1 X-8.335 Y4.553 E0.1575
G1 X-10.821 Y3.117 E0.2363
G1 X-13.648 Y3.616 E0.315
G1 X-15.493 Y5.815 E0.3938
G1 X-15.493 Y8.685 E0.4726
G1 X-13.648 Y10.884 E0.5513
G1 X-10.821 Y11.383 E0.6301
G1 X-8.335 Y9.947 E0.7089
G1 X-7.846 Y10.358 F18000
G92 E0
G1 X-6.715 Y7.25 E0.0907 F4516
G1 X-7.846 Y4.142 E0.1815
G1 X-10.71 Y2.489 E0.2722
G1 X-13.967 Y3.063 E0.363
G1 X-16.093 Y5.596 E0.4537
G1 X-16.093 Y8.904 E0.5445
G1 X-13.967 Y11.437 E0.6352
G1 X-10.71 Y12.011 E0.726
G1 X-7.846 Y10.358 E0.8167
G1 X17.75 Y9.551 F18000
G92 E0
G1 X17.75 Y-7.551 E0.4693 F3011
G1 X2.15 Y-7.551 E0.8973
G1 X2.15 Y9.551 E1.3666
G1 X17.75 Y9.551 E1.7947
G1 X18.35 Y10.151 F18000
G92 E0
G1 X18.35 Y-8.151 E0.5022 F3512
G1 X1.55 Y-8.151 E0.9632
G1 X1.55 Y10.151 E1.4654
G1 X18.35 Y10.151 E1.9264
G1 X18.95 Y10.751 F18000
G92 E0
G1 X18.95 Y-8.751 E0.5351 F4014
G1 X0.95 Y-8.751 E1.029
G1 X0.95 Y10.751 E1.5642
G1 X18.95 Y10.751 E2.0581
G92 E0
G1 E-4.5 F2400
G1 Z0.21 F18000
G1 X-9.314 Y-4.874 F18000
G1 Z0.11 F18000
G1 E0 F2400
G92 E0
G1 X-8.631 Y-6.75 E0.0548 F3011
G1 X-9.314 Y-8.626 E0.1096
G1 X-11.043 Y-9.625 E0.1644
G1 X-13.01 Y-9.278 E0.2192
G1 X-14.293 Y-7.748 E0.274
G1 X-14.293 Y-5.752 E0.3288
G1 X-13.01 Y-4.222 E0.3836
G1 X-11.043 Y-3.875 E0.4384
G1 X-9.314 Y-4.874 E0.4931
G1 X-8.825 Y-4.463 F18000
G92 E0
G1 X-7.992 Y-6.75 E0.0668 F3512
G1 X-8.825 Y-9.037 E0.1336
G1 X-10.932 Y-10.254 E0.2003
G1 X-13.329 Y-9.831 E0.2671
G1 X-14.893 Y-7.967 E0.3339
G1 X-14.893 Y-5.533 E0.4007
G1 X-13.329 Y-3.669 E0.4674
G1 X-10.932 Y-3.246 E0.5342
G1 X-8.825 Y-4.463 E0.601
G1 X-8.335 Y-4.053 F18000
G92 E0
G1 X-7.354 Y-6.75 E0.0788 F4014
G1 X-8.335 Y-9.447 E0.1575
G1 X-10.821 Y-10.883 E0.2363
G1 X-13.648 Y-10.384 E0.3151
G1 X-15.493 Y-8.185 E0.3938
G1 X-15.493 Y-5.315 E0.4726
G1 X-13.648 Y-3.116 E0.5513
G1 X-10.821 Y-2.617 E0.6301
G1 X-8.335 Y-4.053 E0.7089
G1 X-7.846 Y-3.642 F18000
G92 E0
G1 X-6.715 Y-6.75 E0.0907 F4516
G1 X-7.846 Y-9.858 E0.1815
G1 X-10.71 Y-11.511 E0.2722
G1 X-13.967 Y-10.937 E0.363
G1 X-16.093 Y-8.404 E0.4537
G1 X-16.093 Y-5.096 E0.5445
G1 X-13.967 Y-2.563 E0.6352
G1 X-10.71 Y-1.989 E0.726
G1 X-7.846 Y-3.642 E0.8167
G1 X-7.357 Y-3.232 F18000
G92 E0
G1 X-6.077 Y-6.75 E0.1027 F5018
G1 X-7.357 Y-10.268 E0.2055
G1 X-10.771 Y-12.239 E0.3136
G1 X-10.76 Y-12.112 E0.3171
G1 X-14.287 Y-11.49 E0.4154
G1 X-16.693 Y-8.622 E0.5181
G1 X-16.693 Y-4.878 E0.6209
G1 X-14.287 Y-2.01 E0.7236
G1 X-10.6 Y-1.36 E0.8263
G1 X-7.357 Y-3.232 E0.9291
G1 X-0.85 Y11.95 F18000
G92 E0
G1 X-8.204 Y11.95 E0.2018 F5519
G1 X-6.868 Y11.178 E0.2441
G1 X-5.438 Y7.25 E0.3589
G1 X-6.868 Y3.322 E0.4736
G1 X-10.489 Y1.231 E0.5883
G1 X-14.606 Y1.957 E0.703
G1 X-17.293 Y5.16 E0.8177
G1 X-17.293 Y9.34 E0.9324
G1 X-15.103 Y11.95 E1.0259
G1 X-18.15 Y11.95 E1.1095
G1 X-18.15 Y-11.95 E1.7653
G1 X-14.684 Y-11.95 E1.8604
G1 X-17.293 Y-8.84 E1.9718
G1 X-17.293 Y-4.66 E2.0865
G1 X-14.606 Y-1.457 E2.2013
G1 X-10.489 Y-0.731 E2.316
G1 X-6.868 Y-2.821 E2.4307
G1 X-5.438 Y-6.75 E2.5454
G1 X-6.868 Y-10.679 E2.6601
G1 X-9.07 Y-11.95 E2.7299
G1 X18.15 Y-11.95 E3.4768
G1 X18.15 Y-10.551 E3.5152
G1 X-0.85 Y-10.551 E4.0365
G1 X-0.85 Y11.95 E4.654
G1 X-1.36 Y11.269 F18000
G92 E0
G1 X-1.36 Y11.44 E0.0047 F6021
G1 X-1.531 Y11.44 E0.0094
G1 X-1.36 Y11.269 E0.016
G1 X-1.36 Y10.421 E0.0393
G1 X-2.379 Y11.44 E0.0788
G1 X-3.228 Y11.44 E0.1021
G1 X-1.36 Y9.572 E0.1746
G1 X-1.36 Y8.724 E0.1978
G1 X-4.076 Y11.44 E0.3032
G1 X-4.925 Y11.44 E0.3265
G1 X-1.36 Y7.875 E0.4649
G1 X-1.36 Y7.027 E0.4881
G1 X-5.773 Y11.44 E0.6594
G1 X-6.421 Y11.44 E0.6772
G1 X-6.305 Y11.124 E0.6864
G1 X-1.36 Y6.178 E0.8783
G1 X-1.36 Y5.33 E0.9016
G1 X-5.82 Y9.79 E1.0747
G1 X-5.334 Y8.455 E1.1136
G1 X-1.36 Y4.481 E1.2678
G1 X-1.36 Y3.633 E1.2911
G1 X-4.917 Y7.19 E1.4292
G1 X-5.144 Y6.568 E1.4473
G1 X-1.36 Y2.784 E1.5942
G1 X-1.36 Y1.936 E1.6174
G1 X-5.37 Y5.946 E1.773
G1 X-5.597 Y5.324 E1.7912
G1 X-1.36 Y1.087 E1.9556
G1 X-1.36 Y0.239 E1.9789
G1 X-5.823 Y4.702 E2.1521
G1 X-6.049 Y4.08 E2.1703
G1 X-1.36 Y-0.61 E2.3522
G1 X-1.36 Y-1.458 E2.3755
G1 X-6.276 Y3.457 E2.5663
G1 X-6.452 Y2.973 E2.5804
G1 X-6.571 Y2.904 E2.5842
G1 X-1.36 Y-2.307 E2.7864
G1 X-1.36 Y-3.156 E2.8097
G1 X-7.109 Y2.593 E3.0328
G1 X-7.647 Y2.283 E3.0498
G1 X-1.36 Y-4.004 E3.2938
G1 X-1.36 Y-4.853 E3.3171
G1 X-8.185 Y1.972 E3.5819
G1 X-8.723 Y1.662 E3.599
G1 X-1.36 Y-5.701 E3.8847
G1 X-1.36 Y-6.55 E3.908
G1 X-9.261 Y1.351 E4.2146
G1 X-9.799 Y1.041 E4.2316
G1 X-1.36 Y-7.398 E4.5591
G1 X-1.36 Y-8.247 E4.5824
G1 X-6.062 Y-3.544 E4.7648
G1 X-6.452 Y-2.473 E4.7961
G1 X-8.065 Y-1.541 E4.8472
G1 X-10.337 Y0.73 E4.9354
G1 X-10.394 Y0.697 E4.9372
G1 X-11.314 Y0.859 E4.9628
G1 X-10.073 Y-0.382 E5.011
G1 X-10.394 Y-0.197 E5.0212
G1 X-11 Y-0.303 E5.038
G1 X-12.344 Y1.04 E5.0902
G1 X-13.374 Y1.222 E5.1189
G1 X-11.722 Y-0.431 E5.183
G1 X-12.443 Y-0.558 E5.2031
G1 X-14.404 Y1.404 E5.2792
G1 X-17.64 Y4.639 F18000
G92 E0
G1 X-17.64 Y4.779 E0.0038 F6021
G1 X-16.908 Y3.908 E0.0351
G1 X-17.64 Y4.639 E0.0635
G1 X-17.64 Y3.791 E0.0868
G1 X-13.164 Y-0.685 E0.2604
G1 X-13.886 Y-0.812 E0.2805
G1 X-17.64 Y2.942 E0.4262
G1 X-17.64 Y2.094 E0.4495
G1 X-14.607 Y-0.939 E0.5672
G1 X-14.877 Y-0.987 E0.5747
G1 X-15.119 Y-1.276 E0.5851
G1 X-17.64 Y1.245 E0.6829
G1 X-17.64 Y0.397 E0.7062
G1 X-15.507 Y-1.737 E0.7889
G1 X-15.894 Y-2.198 E0.8055
G1 X-17.64 Y-0.452 E0.8732
G1 X-17.64 Y-1.3 E0.8965
G1 X-16.281 Y-2.66 E0.9493
G1 X-16.668 Y-3.121 E0.9658
G1 X-17.64 Y-2.149 E1.0035
G1 X-17.64 Y-2.998 E1.0268
G1 X-17.055 Y-3.582 E1.0495
G1 X-17.442 Y-4.044 E1.066
G1 X-17.64 Y-3.846 E1.0737
G1 X-17.64 Y-10.634 F18000
G92 E0
G1 X-16.834 Y-11.44 E0.0313 F6021
G1 X-15.986 Y-11.44 E0.0545
G1 X-17.64 Y-9.786 E0.1187
G1 X-17.64 Y-9.22 E0.1343
G1 X-15.778 Y-11.44 E0.2138
G1 X-15.986 Y-11.44 E0.2195
G1 X-6.84 Y-11.251 F18000
G92 E0
G1 X-6.652 Y-11.44 E0.0073 F6021
G1 X-5.803 Y-11.44 E0.0306
G1 X-6.389 Y-10.854 E0.0533
G1 X-6.163 Y-10.232 E0.0715
G1 X-4.955 Y-11.44 E0.1184
G1 X-4.106 Y-11.44 E0.1417
G1 X-5.936 Y-9.61 E0.2127
G1 X-5.71 Y-8.988 E0.2308
G1 X-3.258 Y-11.44 E0.326
G1 X-2.409 Y-11.44 E0.3493
G1 X-5.484 Y-8.366 E0.4686
G1 X-5.257 Y-7.744 E0.4867
G1 X-1.561 Y-11.44 E0.6302
G1 X-0.712 Y-11.44 E0.6535
G1 X-1.091 Y-11.061 E0.6682
G1 X-0.243 Y-11.061 E0.6915
G1 X0.136 Y-11.44 E0.7062
G1 X0.985 Y-11.44 E0.7294
G1 X0.606 Y-11.061 E0.7442
G1 X1.454 Y-11.061 E0.7674
G1 X1.833 Y-11.44 E0.7821
G1 X2.682 Y-11.44 E0.8054
G1 X2.303 Y-11.061 E0.8201
G1 X3.151 Y-11.061 E0.8434
G1 X3.53 Y-11.44 E0.8581
G1 X4.379 Y-11.44 E0.8814
G1 X4 Y-11.061 E0.8961
G1 X4.848 Y-11.061 E0.9194
G1 X5.227 Y-11.44 E0.9341
G1 X6.076 Y-11.44 E0.9574
G1 X5.697 Y-11.061 E0.9721
G1 X6.545 Y-11.061 E0.9954
G1 X6.924 Y-11.44 E1.0101
G1 X7.773 Y-11.44 E1.0334
G1 X7.394 Y-11.061 E1.0481
G1 X8.243 Y-11.061 E1.0714
G1 X8.622 Y-11.44 E1.0861
G1 X9.47 Y-11.44 E1.1094
G1 X9.091 Y-11.061 E1.1241
G1 X9.94 Y-11.061 E1.1473
G1 X10.319 Y-11.44 E1.1621
G1 X11.167 Y-11.44 E1.1853
G1 X10.788 Y-11.061 E1.2
G1 X11.637 Y-11.061 E1.2233
G1 X12.016 Y-11.44 E1.238
G1 X12.864 Y-11.44 E1.2613
G1 X12.485 Y-11.061 E1.276
G1 X13.334 Y-11.061 E1.2993
G1 X13.713 Y-11.44 E1.314
G1 X14.561 Y-11.44 E1.3373
G1 X14.182 Y-11.061 E1.352
G1 X15.031 Y-11.061 E1.3753
G1 X15.41 Y-11.44 E1.39
G1 X16.258 Y-11.44 E1.4133
G1 X15.879 Y-11.061 E1.428
G1 X16.728 Y-11.061 E1.4513
G1 X17.107 Y-11.44 E1.466
G1 X17.64 Y-11.44 E1.4806
G1 X17.64 Y-11.125 E1.4893
G1 X17.576 Y-11.061 E1.4917
G1 X17.64 Y-11.061 E1.4935
G1 X17.64 Y-11.125 E1.4952
G1 X-1.36 Y-8.247 F18000
G92 E0
G1 X-1.36 Y-9.095 E0.0233 F6021
G1 X-5.577 Y-4.879 E0.1869
G1 X-5.091 Y-6.213 E0.2259
G1 X-1.36 Y-9.944 E0.3707
G1 X-1.36 Y-10.792 E0.3939
G1 X-5.031 Y-7.122 E0.5364
G1 X-17.64 Y9.73 F18000
G92 E0
G1 X-17.636 Y9.726 E0.0002 F6021
G1 X-17.248 Y10.187 E0.0167
G1 X-17.64 Y10.579 E0.0319
G1 X-17.64 Y11.427 E0.0552
G1 X-16.861 Y10.649 E0.0854
G1 X-16.474 Y11.11 E0.1019
G1 X-16.804 Y11.44 E0.1147
G1 X-16.197 Y11.44 E0.1314
G1 X-16.474 Y11.11 E0.1432
; layer 2, Z = 0.21
M105
; tool H0.1 W0.6
G1 X-21.15 Y14.95 F18000
G1 Z0.21 F18000
G92 E0
G1 X-21.15 Y-14.95 E0.7459 F3004
G1 X21.15 Y-14.95 E1.801
G1 X21.15 Y14.95 E2.5469
G1 X-21.15 Y14.95 E3.6021
G1 X-20.55 Y14.35 F18000
G92 E0
G1 X-20.55 Y-14.35 E0.7159 F3505
G1 X20.55 Y-14.35 E1.7412
G1 X20.55 Y14.35 E2.4571
G1 X-20.55 Y14.35 E3.4823
G1 X-19.95 Y13.75 F18000
G92 E0
G1 X-19.95 Y-13.75 E0.686 F4005
G1 X19.95 Y-13.75 E1.6813
