; G-Code generated by Simplify3D(TM) Version 2.1.2
; Dec 5, 2014 at 10:06:58 PM
; Settings Summary
;   processName,Process1
;   applyToModels,mount_au,mount_cap_au
;   printMaterial,
;   printQuality,
;   extruderName,Primary Extruder
;   extruderToolheadNumber,0
;   extruderDiameter,0.6
;   extruderAutoWidth,0
;   extruderWidth,0.72
;   extrusionMultiplier,1
;   extruderUseRetract,1
;   extruderRetractionDistance,4.5
;   extruderExtraRestartDistance,0
;   extruderRetractionZLift,0.1
;   extruderRetractionSpeed,2400
;   extruderUseCoasting,0
;   extruderCoastingDistance,1
;   extruderUseWipe,0
;   extruderWipeDistance,5
;   primaryExtruder,0
;   layerHeight,0.15
;   topSolidLayers,6
;   bottomSolidLayers,6
;   perimeterOutlines,6
;   printPerimetersInsideOut,1
;   startPointOption,2
;   startPointOriginX,0
;   startPointOriginY,0
;   startPointOriginZ,0
;   sequentialIslands,0
;   spiralVaseMode,0
;   firstLayerHeightRatio,1
;   firstLayerUnderspeed,0.3
;   useRaft,0
;   raftLayers,3
;   raftOffset,3
;   raftSeparationDistance,0.14
;   raftInfill,85
;   disableRaftBaseLayers,0
;   useSkirt,1
;   skirtLayers,1
;   skirtOutlines,3
;   skirtOffset,5.4
;   infillExtruder,0
;   externalInfillPattern,Concentric
;   infillPercentage,100
;   outlineOverlapPercentage,15
;   minInfillLength,5
;   infillLayerInterval,1
;   randomInfillStartPoint,0
;   infillAngles,45,-45
;   generateSupport,1
;   supportExtruder,0
;   supportInfill,40
;   supportExtraInflation,0
;   supportLayerInterval,1
;   supportHorizontalPartOffset,0.4
;   supportUpperSeparationLayers,2
;   supportLowerSeparationLayers,1
;   supportGridSpacing,6
;   maxOverhangAngle,45
;   supportAngles,90
;   temperatureName,Primary Extruder,Heated Bed
;   temperatureNumber,0,1
;   temperatureSetpointCount,1,1
;   temperatureSetpointLayers,1,1
;   temperatureSetpointTemperatures,245,75
;   temperatureStabilizeAtStartup,1,0
;   temperatureHeatedBed,0,1
;   temperatureRelayBetweenLayers,0,0
;   temperatureRelayBetweenLoops,0,0
;   fanLayers,1
;   fanSpeeds,0
;   blipFanToFullPower,1
;   adjustSpeedForCooling,1
;   minSpeedLayerTime,15
;   minCoolingSpeedSlowdown,20
;   increaseFanForCooling,0
;   minFanLayerTime,60
;   maxCoolingFanSpeed,100
;   increaseFanForBridging,0
;   bridgingFanSpeed,100
;   use5D,1
;   relativeEdistances,0
;   allowEaxisZeroing,1
;   includeM10123,0
;   stickySupport,1
;   detectArcs,0
;   arcReplaceG2G3,0
;   arcRadialCompensation,1
;   gcodeXoffset,0
;   gcodeYoffset,0
;   gcodeZoffset,0
;   overrideMachineDefinition,0
;   machineTypeOverride,1
;   strokeXoverride,170
;   strokeYoverride,170
;   strokeZoverride,185
;   originOffsetXoverride,0
;   originOffsetYoverride,0
;   originOffsetZoverride,0
;   homeXdirOverride,0
;   homeYdirOverride,0
;   homeZdirOverride,1
;   flipXoverride,1
;   flipYoverride,1
;   flipZoverride,1
;   startingGcode,G28 ; home all axes
;   layerChangeGcode,
;   toolChangeGcode,
;   endingGcode,M104 S0 ; turn off extruder,M140 S0 ; turn off bed,G28 ; home axes,M84 ; disable motors
;   createX3G,0
;   celebration,0
;   celebrationSong,Random Song
;   postProcessing,
;   defaultSpeed,3000
;   outlineUnderspeed,0.5
;   supportUnderspeed,1
;   rapidXYspeed,3000
;   rapidZspeed,3000
;   minBridgingArea,50
;   bridgingExtrusionMultiplier,0.95
;   bridgingSpeedMultiplier,0.7
;   filamentDiameter,1.75
;   filamentPricePerKg,26
;   useMinPrintHeight,0
;   minPrintHeight,0
;   useMaxPrintHeight,0
;   maxPrintHeight,0
;   overlapRemoval,0
;   overlapRemovalPercentage,0.3
;   useDiaphragm,1
;   diaphragmLayerInterval,1
;   robustSlicing,1
;   mergeAllIntoSolid,0
;   onlyRetractWhenCrossingOutline,1
;   retractBetweenLayers,0
;   useRetractionMinTravel,1
;   retractionMinTravel,1.5
;   useRetractionOozeRate,0
;   retractionOozeRate,100
;   onlyWipeOutlines,1
G90 ; use absolute coordinates
M82 ; absolute extrusion distances
G21 ; set units to millimeters
M106 S0
M140 S75
M104 S245 T0
M109 S245 T0
G28 ; home all axes
G92 E0
G1 E-4.5 F2400
G0 Z0.25 F3000
; layer 1, Z = 0.15
T0
; tool H0.15 W0.72
G0 X13.806 Y-4.034 F3000
G0 Z0.15 F3000
G1 E0 F720
G92 E0
G1 X16.021 Y-4.227 E0.0999 F900
G1 X18.753 Y-3.989 E0.223
G1 X21.401 Y-3.279 E0.3461
G1 X23.885 Y-2.12 E0.4692
G1 X26.131 Y-0.548 E0.5923
G1 X28.069 Y1.391 E0.7153
G1 X29.642 Y3.636 E0.8384
G1 X30.801 Y6.121 E0.9615
G1 X31.51 Y8.769 E1.0846
G1 X31.749 Y11.5 E1.2077
G1 X31.51 Y14.231 E1.3308
G1 X30.801 Y16.879 E1.4539
G1 X29.642 Y19.364 E1.577
G1 X28.069 Y21.609 E1.7001
G1 X26.131 Y23.548 E1.8232
G1 X24.582 Y24.632 E1.9081
G1 X24.645 Y25.328 E1.9394
G1 X21.81 Y26.088 E2.0712
G1 X21.4 Y26.279 E2.0915
G1 X18.753 Y26.989 E2.2146
G1 X18.306 Y27.028 E2.2347
G1 X17.421 Y27.265 E2.2759
G1 X16.666 Y27.617 E2.3133
G1 X15.985 Y28.094 E2.3506
G1 X15.397 Y28.682 E2.388
G1 X14.919 Y29.364 E2.4253
G1 X14.568 Y30.118 E2.4627
G1 X14.353 Y30.921 E2.5001
G1 X14.28 Y31.75 E2.5374
G1 X14.353 Y32.579 E2.5748
G1 X14.59 Y33.466 E2.616
G1 X14.779 Y33.871 E2.6361
G1 X15.489 Y36.519 E2.7592
G1 X15.527 Y36.963 E2.7792
G1 X16.284 Y39.786 E2.9104
G1 X15.655 Y40.08 E2.9416
G1 X15.489 Y41.981 E3.0273
G1 X14.779 Y44.629 E3.1504
G1 X13.62 Y47.114 E3.2735
G1 X12.048 Y49.359 E3.3966
G1 X10.109 Y51.298 E3.5197
G1 X7.864 Y52.87 E3.6427
G1 X5.379 Y54.029 E3.7658
G1 X2.731 Y54.739 E3.8889
G1 X0 Y54.977 E4.012
G1 X-2.731 Y54.739 E4.1351
G1 X-5.379 Y54.029 E4.2582
G1 X-7.864 Y52.87 E4.3813
G1 X-10.109 Y51.298 E4.5044
G1 X-12.048 Y49.359 E4.6275
G1 X-13.62 Y47.114 E4.7506
G1 X-14.779 Y44.629 E4.8737
G1 X-15.489 Y41.981 E4.9968
G1 X-15.655 Y40.08 E5.0825
G1 X-16.284 Y39.786 E5.1137
G1 X-15.527 Y36.963 E5.2449
G1 X-15.489 Y36.519 E5.2649
G1 X-14.779 Y33.871 E5.388
G1 X-14.59 Y33.466 E5.4081
G1 X-14.353 Y32.579 E5.4493
G1 X-14.28 Y31.75 E5.4867
G1 X-14.51 Y29.127 E5.6049
G1 X-16.666 Y27.617 E5.7231
G1 X-17.42 Y27.265 E5.7605
G1 X-18.309 Y27.027 E5.8018
G1 X-18.755 Y26.988 E5.8219
G1 X-21.4 Y26.279 E5.9449
G1 X-21.805 Y26.091 E5.9649
G1 X-24.645 Y25.329 E6.0969
G1 X-24.582 Y24.632 E6.1284
G1 X-26.131 Y23.548 E6.2133
G1 X-28.069 Y21.609 E6.3363
G1 X-29.642 Y19.364 E6.4594
G1 X-30.801 Y16.879 E6.5825
G1 X-31.51 Y14.231 E6.7056
G1 X-31.749 Y11.5 E6.8287
G1 X-31.51 Y8.769 E6.9518
G1 X-30.801 Y6.121 E7.0749
G1 X-29.642 Y3.636 E7.198
G1 X-28.069 Y1.391 E7.3211
G1 X-26.131 Y-0.548 E7.4442
G1 X-23.885 Y-2.12 E7.5673
G1 X-21.401 Y-3.279 E7.6904
G1 X-18.753 Y-3.989 E7.8135
G1 X-16.021 Y-4.227 E7.9366
G1 X-13.806 Y-4.034 E8.0365
G1 X-14.779 Y-6.121 E8.1399
G1 X-15.489 Y-8.769 E8.263
G1 X-15.655 Y-10.67 E8.3487
G1 X-16.284 Y-10.964 E8.3798
G1 X-15.527 Y-13.787 E8.511
G1 X-15.489 Y-14.231 E8.5311
G1 X-14.779 Y-16.879 E8.6542
G1 X-14.59 Y-17.284 E8.6742
G1 X-14.353 Y-18.171 E8.7155
G1 X-14.28 Y-19 E8.7528
G1 X-14.353 Y-19.829 E8.7902
G1 X-14.568 Y-20.632 E8.8275
G1 X-14.919 Y-21.386 E8.8649
G1 X-15.397 Y-22.068 E8.9022
G1 X-15.985 Y-22.656 E8.9396
G1 X-16.666 Y-23.133 E8.9769
G1 X-17.42 Y-23.485 E9.0143
G1 X-18.309 Y-23.723 E9.0556
G1 X-18.755 Y-23.762 E9.0757
G1 X-21.401 Y-24.471 E9.1987
G1 X-21.805 Y-24.659 E9.2187
G1 X-24.645 Y-25.42 E9.3507
G1 X-24.582 Y-26.117 E9.3822
G1 X-26.131 Y-27.202 E9.4671
G1 X-28.069 Y-29.141 E9.5902
G1 X-29.642 Y-31.386 E9.7133
G1 X-30.801 Y-33.871 E9.8364
G1 X-31.51 Y-36.519 E9.9595
G1 X-31.749 Y-39.25 E10.0825
G1 X-31.51 Y-41.981 E10.2056
G1 X-30.801 Y-44.629 E10.3287
G1 X-29.642 Y-47.114 E10.4518
G1 X-28.069 Y-49.359 E10.5749
G1 X-26.131 Y-51.298 E10.698
G1 X-23.885 Y-52.87 E10.8211
G1 X-21.401 Y-54.029 E10.9442
G1 X-18.753 Y-54.739 E11.0673
G1 X-16.021 Y-54.977 E11.1904
G1 X-13.29 Y-54.739 E11.3135
G1 X-10.642 Y-54.029 E11.4366
G1 X-8.905 Y-53.219 E11.5227
G1 X-8.34 Y-53.614 E11.5536
G1 X-6.283 Y-51.558 E11.6842
G1 X-5.912 Y-51.298 E11.7045
G1 X-3.974 Y-49.36 E11.8276
G1 X-3.717 Y-48.992 E11.8478
G1 X-3.068 Y-48.345 E11.8889
G1 X-2.386 Y-47.867 E11.9263
G1 X-1.632 Y-47.515 E11.9636
G1 X-0.829 Y-47.3 E12.001
G1 X0 Y-47.227 E12.0384
G1 X0.829 Y-47.3 E12.0757
G1 X1.632 Y-47.515 E12.1131
G1 X2.386 Y-47.867 E12.1504
G1 X3.068 Y-48.344 E12.1878
G1 X3.718 Y-48.994 E12.2291
G1 X3.975 Y-49.361 E12.2492
G1 X5.912 Y-51.298 E12.3722
G1 X6.278 Y-51.554 E12.3922
G1 X8.336 Y-53.612 E12.5229
G1 X8.902 Y-53.217 E12.5539
G1 X10.642 Y-54.029 E12.6401
G1 X13.291 Y-54.739 E12.7632
G1 X16.021 Y-54.977 E12.8863
G1 X18.753 Y-54.739 E13.0094
G1 X21.401 Y-54.029 E13.1325
G1 X23.885 Y-52.87 E13.2556
G1 X26.131 Y-51.298 E13.3787
G1 X28.069 Y-49.359 E13.5018
G1 X29.642 Y-47.114 E13.6249
G1 X30.801 Y-44.629 E13.748
G1 X31.51 Y-41.981 E13.8711
G1 X31.749 Y-39.25 E13.9942
G1 X31.51 Y-36.519 E14.1173
G1 X30.801 Y-33.871 E14.2404
G1 X29.642 Y-31.386 E14.3635
G1 X28.069 Y-29.141 E14.4866
G1 X26.131 Y-27.202 E14.6096
G1 X24.584 Y-26.119 E14.6944
G1 X24.648 Y-25.423 E14.7258
G1 X21.81 Y-24.662 E14.8577
G1 X21.4 Y-24.471 E14.878
G1 X18.753 Y-23.761 E15.0011
G1 X18.306 Y-23.722 E15.0212
G1 X17.421 Y-23.485 E15.0624
G1 X16.666 Y-23.133 E15.0998
G1 X15.985 Y-22.656 E15.1371
G1 X15.397 Y-22.068 E15.1745
G1 X14.919 Y-21.386 E15.2118
G1 X14.568 Y-20.632 E15.2492
G1 X14.353 Y-19.829 E15.2865
G1 X14.28 Y-19 E15.3239
G1 X14.353 Y-18.171 E15.3612
G1 X14.59 Y-17.284 E15.4025
G1 X14.779 Y-16.879 E15.4225
G1 X15.489 Y-14.231 E15.5456
G1 X15.527 Y-13.787 E15.5657
G1 X16.284 Y-10.964 E15.6969
G1 X15.655 Y-10.67 E15.728
G1 X15.489 Y-8.769 E15.8137
G1 X14.779 Y-6.121 E15.9368
G1 X13.806 Y-4.034 E16.0402
G0 X12.994 Y-3.998 F3000
G92 E0
G1 X12.276 Y-2.971 E0.0563 F900
G1 X13.416 Y-3.277 E0.1093
G1 X16.021 Y-3.505 E0.2267
G1 X18.627 Y-3.277 E0.3441
G1 X21.153 Y-2.6 E0.4616
G1 X23.524 Y-1.494 E0.579
G1 X25.666 Y0.006 E0.6964
G1 X27.516 Y1.855 E0.8139
G1 X29.016 Y3.997 E0.9313
G1 X30.121 Y6.368 E1.0488
G1 X30.798 Y8.894 E1.1662
G1 X31.026 Y11.5 E1.2836
G1 X30.798 Y14.106 E1.4011
G1 X30.121 Y16.632 E1.5185
G1 X29.016 Y19.003 E1.636
G1 X27.516 Y21.145 E1.7534
G1 X25.666 Y22.994 E1.8708
G1 X23.828 Y24.282 E1.9716
G1 X23.874 Y24.789 E1.9945
G1 X21.563 Y25.409 E2.1019
G1 X21.153 Y25.6 E2.1222
G1 X18.627 Y26.277 E2.2396
G1 X18.181 Y26.316 E2.2598
G1 X17.174 Y26.586 E2.3066
G1 X16.305 Y26.991 E2.3496
G1 X15.52 Y27.54 E2.3926
G1 X14.843 Y28.218 E2.4356
G1 X14.293 Y29.002 E2.4786
G1 X13.889 Y29.87 E2.5216
G1 X13.641 Y30.796 E2.5647
G1 X13.557 Y31.75 E2.6077
G1 X13.641 Y32.704 E2.6507
G1 X13.911 Y33.714 E2.6976
G1 X14.1 Y34.118 E2.7176
G1 X14.777 Y36.644 E2.8351
G1 X14.816 Y37.089 E2.8551
G1 X15.432 Y39.389 E2.962
G1 X14.974 Y39.603 E2.9847
G1 X14.777 Y41.856 E3.0863
G1 X14.1 Y44.382 E3.2037
G1 X12.994 Y46.752 E3.3212
G1 X11.494 Y48.895 E3.4386
G1 X9.645 Y50.744 E3.556
G1 X7.502 Y52.244 E3.6735
G1 X5.132 Y53.35 E3.7909
G1 X2.606 Y54.027 E3.9083
G1 X0 Y54.255 E4.0258
G1 X-2.606 Y54.027 E4.1432
G1 X-5.132 Y53.35 E4.2607
G1 X-7.502 Y52.244 E4.3781
G1 X-9.645 Y50.744 E4.4955
G1 X-11.494 Y48.895 E4.613
G1 X-12.994 Y46.752 E4.7304
G1 X-14.1 Y44.382 E4.8479
G1 X-14.777 Y41.855 E4.9653
G1 X-14.974 Y39.603 E5.0668
G1 X-15.432 Y39.389 E5.0895
G1 X-14.816 Y37.089 E5.1965
G1 X-14.777 Y36.644 E5.2165
G1 X-14.1 Y34.118 E5.3339
G1 X-13.911 Y33.713 E5.354
G1 X-13.641 Y32.704 E5.4009
G1 X-13.557 Y31.75 E5.4439
G1 X-13.822 Y28.729 E5.58
G1 X-16.305 Y26.991 E5.7161
G1 X-17.173 Y26.586 E5.7592
G1 X-18.183 Y26.316 E5.8061
G1 X-18.629 Y26.276 E5.8262
G1 X-21.153 Y25.6 E5.9436
G1 X-21.558 Y25.411 E5.9636
G1 X-23.874 Y24.791 E6.0712
G1 X-23.828 Y24.282 E6.0942
G1 X-25.666 Y22.994 E6.195
G1 X-27.516 Y21.145 E6.3124
G1 X-29.016 Y19.003 E6.4298
G1 X-30.121 Y16.632 E6.5473
G1 X-30.798 Y14.106 E6.6647
G1 X-31.026 Y11.5 E6.7822
G1 X-30.798 Y8.894 E6.8996
G1 X-30.121 Y6.368 E7.017
G1 X-29.016 Y3.997 E7.1345
G1 X-27.516 Y1.855 E7.2519
G1 X-25.666 Y0.006 E7.3694
G1 X-23.524 Y-1.494 E7.4868
G1 X-21.153 Y-2.6 E7.6042
G1 X-18.627 Y-3.277 E7.7217
G1 X-16.021 Y-3.505 E7.8391
G1 X-13.416 Y-3.277 E7.9566
G1 X-12.276 Y-2.971 E8.0096
G1 X-12.994 Y-3.998 E8.0658
G1 X-14.1 Y-6.368 E8.1832
G1 X-14.777 Y-8.894 E8.3007
G1 X-14.974 Y-11.147 E8.4022
G1 X-15.432 Y-11.361 E8.4249
G1 X-14.816 Y-13.661 E8.5318
G1 X-14.777 Y-14.106 E8.5519
G1 X-14.1 Y-16.632 E8.6693
G1 X-13.911 Y-17.036 E8.6894
G1 X-13.641 Y-18.046 E8.7363
G1 X-13.557 Y-19 E8.7793
G1 X-13.641 Y-19.954 E8.8223
G1 X-13.889 Y-20.88 E8.8653
G1 X-14.293 Y-21.748 E8.9083
G1 X-14.843 Y-22.532 E8.9513
G1 X-15.52 Y-23.21 E8.9943
G1 X-16.305 Y-23.759 E9.0374
G1 X-17.173 Y-24.164 E9.0804
G1 X-18.183 Y-24.434 E9.1273
G1 X-18.629 Y-24.474 E9.1474
G1 X-21.153 Y-25.15 E9.2648
G1 X-21.558 Y-25.339 E9.2848
G1 X-23.873 Y-25.959 E9.3924
G1 X-23.827 Y-26.468 E9.4154
G1 X-25.666 Y-27.756 E9.5162
G1 X-27.516 Y-29.605 E9.6336
G1 X-29.016 Y-31.747 E9.751
G1 X-30.121 Y-34.118 E9.8685
G1 X-30.798 Y-36.644 E9.9859
G1 X-31.026 Y-39.25 E10.1034
G1 X-30.798 Y-41.855 E10.2208
G1 X-30.121 Y-44.382 E10.3382
G1 X-29.016 Y-46.753 E10.4557
G1 X-27.516 Y-48.895 E10.5731
G1 X-25.666 Y-50.744 E10.6906
G1 X-23.524 Y-52.244 E10.808
G1 X-21.153 Y-53.35 E10.9254
G1 X-18.627 Y-54.027 E11.0429
G1 X-16.021 Y-54.255 E11.1603
G1 X-13.416 Y-54.027 E11.2778
G1 X-10.889 Y-53.35 E11.3952
G1 X-8.833 Y-52.391 E11.4971
G1 X-8.422 Y-52.678 E11.5196
G1 X-6.747 Y-51.004 E11.6259
G1 X-6.377 Y-50.744 E11.6462
G1 X-4.527 Y-48.895 E11.7637
G1 X-4.27 Y-48.528 E11.7838
G1 X-3.533 Y-47.791 E11.8306
G1 X-2.748 Y-47.241 E11.8736
G1 X-1.879 Y-46.836 E11.9167
G1 X-0.954 Y-46.588 E11.9597
G1 X0 Y-46.505 E12.0027
G1 X0.954 Y-46.588 E12.0457
G1 X1.88 Y-46.836 E12.0887
G1 X2.748 Y-47.241 E12.1317
G1 X3.532 Y-47.79 E12.1747
G1 X4.272 Y-48.53 E12.2217
G1 X4.529 Y-48.897 E12.2418
G1 X6.377 Y-50.744 E12.3591
G1 X6.742 Y-51 E12.3792
G1 X8.419 Y-52.677 E12.4856
G1 X8.831 Y-52.39 E12.5082
G1 X10.889 Y-53.35 E12.6102
G1 X13.416 Y-54.027 E12.7276
G1 X16.021 Y-54.255 E12.845
G1 X18.627 Y-54.027 E12.9625
G1 X21.153 Y-53.35 E13.0799
G1 X23.524 Y-52.244 E13.1974
G1 X25.666 Y-50.744 E13.3148
G1 X27.516 Y-48.895 E13.4322
G1 X29.016 Y-46.753 E13.5497
G1 X30.121 Y-44.382 E13.6671
G1 X30.798 Y-41.855 E13.7846
G1 X31.026 Y-39.25 E13.902
G1 X30.798 Y-36.644 E14.0194
G1 X30.121 Y-34.118 E14.1369
G1 X29.016 Y-31.747 E14.2543
G1 X27.516 Y-29.605 E14.3718
G1 X25.666 Y-27.756 E14.4892
G1 X23.83 Y-26.47 E14.5899
G1 X23.876 Y-25.961 E14.6128
G1 X21.563 Y-25.341 E14.7203
G1 X21.153 Y-25.15 E14.7406
G1 X18.627 Y-24.473 E14.858
G1 X18.181 Y-24.434 E14.8781
G1 X17.174 Y-24.164 E14.925
G1 X16.305 Y-23.759 E14.968
G1 X15.52 Y-23.21 E15.011
G1 X14.843 Y-22.532 E15.054
G1 X14.293 Y-21.748 E15.097
G1 X13.889 Y-20.88 E15.14
G1 X13.641 Y-19.954 E15.1831
G1 X13.557 Y-19 E15.2261
G1 X13.641 Y-18.046 E15.2691
G1 X13.911 Y-17.036 E15.316
G1 X14.1 Y-16.632 E15.336
G1 X14.777 Y-14.106 E15.4535
G1 X14.816 Y-13.661 E15.4735
G1 X15.432 Y-11.361 E15.5804
G1 X14.974 Y-11.147 E15.6031
G1 X14.777 Y-8.894 E15.7047
G1 X14.1 Y-6.368 E15.8221
G1 X12.994 Y-3.998 E15.9395
G0 X3.373 Y3.071 F3000
G92 E0
G1 X2.605 Y3.277 E0.0357 F900
G1 X0 Y3.505 E0.1531
G1 X-2.605 Y3.277 E0.2705
G1 X-3.373 Y3.071 E0.3062
G1 X-2.748 Y3.509 E0.3405
G1 X-1.879 Y3.914 E0.3835
G1 X-0.954 Y4.162 E0.4265
G1 X0 Y4.245 E0.4695
G1 X0.954 Y4.162 E0.5125
G1 X1.879 Y3.914 E0.5555
G1 X2.748 Y3.509 E0.5985
G1 X3.373 Y3.071 E0.6328
G0 X3.997 Y3.513 F3000
G92 E0
G1 X4.825 Y2.685 E0.0526 F900
G1 X5.082 Y2.318 E0.0727
G1 X6 Y1.401 E0.131
G1 X4.885 Y1.921 E0.1862
G1 X2.48 Y2.565 E0.298
G1 X0 Y2.782 E0.4098
G1 X-2.48 Y2.565 E0.5216
G1 X-4.885 Y1.921 E0.6333
G1 X-6 Y1.401 E0.6886
G1 X-5.081 Y2.32 E0.7469
G1 X-4.824 Y2.687 E0.7671
G1 X-3.997 Y3.513 E0.8195
G1 X-3.109 Y4.135 E0.8682
G1 X-2.127 Y4.593 E0.9169
G1 X-1.08 Y4.874 E0.9656
G1 X0 Y4.968 E1.0142
G1 X1.08 Y4.874 E1.0629
G1 X2.127 Y4.593 E1.1116
G1 X3.109 Y4.135 E1.1602
G1 X3.997 Y3.513 E1.2089
G0 X11.137 Y-1.921 F3000
G92 E0
G1 X13.542 Y-2.565 E0.1118 F900
G1 X16.021 Y-2.782 E0.2236
G1 X18.502 Y-2.565 E0.3353
G1 X20.906 Y-1.921 E0.4471
G1 X23.162 Y-0.869 E0.5589
G1 X25.202 Y0.559 E0.6707
G1 X26.962 Y2.32 E0.7825
G1 X28.39 Y4.359 E0.8943
G1 X29.442 Y6.615 E1.006
G1 X30.086 Y9.02 E1.1178
G1 X30.304 Y11.5 E1.2296
G1 X30.086 Y13.98 E1.3414
G1 X29.442 Y16.385 E1.4532
G1 X28.39 Y18.641 E1.565
G1 X26.962 Y20.68 E1.6767
G1 X25.202 Y22.441 E1.7885
