; G-Code generated by Simplify3D(TM) Version 2.2.0
; Jan 1, 2015 at 12:34:49 PM
; Settings Summary
;   processName,Process1
;   applyToModels,glasssidemount,glasssidemount(2),glasssidemount(3),glass_tab,glass_tab(2),glass_tab(3)
;   profileLabel,DeltaGSuperFine.fff
;   printMaterial,PLA
;   printQuality,Medium
;   extruderName,Primary Extruder
;   extruderToolheadNumber,0
;   extruderDiameter,0.6
;   extruderAutoWidth,0
;   extruderWidth,0.6
;   extrusionMultiplier,1.05
;   extruderUseRetract,1
;   extruderRetractionDistance,4.5
;   extruderExtraRestartDistance,0
;   extruderRetractionZLift,0.1
;   extruderRetractionSpeed,2400
;   extruderUseCoasting,1
;   extruderCoastingDistance,1
;   extruderUseWipe,1
;   extruderWipeDistance,3
;   primaryExtruder,0
;   layerHeight,0.1
;   topSolidLayers,6
;   bottomSolidLayers,6
;   perimeterOutlines,6
;   printPerimetersInsideOut,0
;   startPointOption,2
;   startPointOriginX,0
;   startPointOriginY,0
;   startPointOriginZ,0
;   sequentialIslands,0
;   spiralVaseMode,0
;   firstLayerHeightPercentage,110
;   firstLayerWidthPercentage,100
;   firstLayerUnderspeed,0.5
;   useRaft,0
;   raftExtruder,0
;   raftLayers,3
;   raftOffset,3
;   raftSeparationDistance,0.14
;   raftInfill,85
;   disableRaftBaseLayers,0
;   useSkirt,1
;   skirtExtruder,0
;   skirtLayers,1
;   skirtOutlines,3
;   skirtOffset,5.4
;   infillExtruder,0
;   externalInfillPattern,Rectilinear
;   infillPercentage,50
;   outlineOverlapPercentage,15
;   infillExtrusionWidthPercentage,100
;   minInfillLength,5
;   infillLayerInterval,1
;   randomInfillStartPoint,0
;   infillAngles,45,-45
;   generateSupport,1
;   supportExtruder,0
;   supportInfill,40
;   supportExtraInflation,0
;   denseSupportLayers,0
;   denseSupportInfill,75
;   supportLayerInterval,1
;   supportHorizontalPartOffset,0.3
;   supportUpperSeparationLayers,2
;   supportLowerSeparationLayers,1
;   supportGridSpacing,4
;   maxOverhangAngle,35
;   supportAngles,90
;   temperatureName,Primary Extruder,Heated Bed
;   temperatureNumber,0,1
;   temperatureSetpointCount,1,1
;   temperatureSetpointLayers,1,1
;   temperatureSetpointTemperatures,245,80
;   temperatureStabilizeAtStartup,1,0
;   temperatureHeatedBed,0,1
;   temperatureRelayBetweenLayers,1,0
;   temperatureRelayBetweenLoops,0,0
;   fanLayers,1
;   fanSpeeds,0
;   blipFanToFullPower,1
;   adjustSpeedForCooling,1
;   minSpeedLayerTime,15
;   minCoolingSpeedSlowdown,20
;   increaseFanForCooling,0
;   minFanLayerTime,60
;   maxCoolingFanSpeed,100
;   increaseFanForBridging,0
;   bridgingFanSpeed,100
;   use5D,1
;   relativeEdistances,0
;   allowEaxisZeroing,1
;   independentExtruderAxes,0
;   includeM10123,0
;   stickySupport,1
;   detectArcs,0
;   arcReplaceG2G3,0
;   arcRadialCompensation,1
;   gcodeXoffset,0
;   gcodeYoffset,0
;   gcodeZoffset,0
;   overrideMachineDefinition,0
;   machineTypeOverride,1
;   strokeXoverride,170
;   strokeYoverride,170
;   strokeZoverride,185
;   originOffsetXoverride,0
;   originOffsetYoverride,0
;   originOffsetZoverride,0
;   homeXdirOverride,0
;   homeYdirOverride,0
;   homeZdirOverride,1
;   flipXoverride,1
;   flipYoverride,1
;   flipZoverride,1
;   startingGcode,G28 ; home all axes
;   layerChangeGcode,
;   toolChangeGcode,
;   endingGcode,M104 S0 ; turn off extruder,M140 S0 ; turn off bed,G28 ; home axes,M84 ; disable motors
;   createX3G,0
;   celebration,0
;   celebrationSong,Random Song
;   createMB5G,0
;   postProcessing,
;   defaultSpeed,7200
;   outlineUnderspeed,0.6
;   solidInfillUnderspeed,1
;   supportUnderspeed,1
;   rapidXYspeed,7200
;   rapidZspeed,7200
;   minBridgingArea,50
;   bridgingExtrusionMultiplier,0.95
;   bridgingSpeedMultiplier,0.7
;   filamentDiameter,1.75
;   filamentPricePerKg,26
;   useMinPrintHeight,0
;   minPrintHeight,0
;   useMaxPrintHeight,0
;   maxPrintHeight,0
;   useDiaphragm,0
;   diaphragmLayerInterval,1
;   robustSlicing,1
;   mergeAllIntoSolid,0
;   onlyRetractWhenCrossingOutline,1
;   retractBetweenLayers,0
;   useRetractionMinTravel,1
;   retractionMinTravel,1.5
;   useRetractionOozeRate,0
;   retractionOozeRate,6000
;   onlyWipeOutlines,1
;   toolChangeRetractionDistance,0
;   toolChangeExtraRestartDistance,0
;   toolChangeRetractionSpeed,360
;   allowThinWallGapFill,1
;   thinWallAllowedOverlapPercentage,10
G90
M82
M106 S0
M140 S80
M104 S245 T0
M109 S245 T0
G28 ; home all axes
G92 E0
G1 E-4.5 F2400
G1 Z0.21 F7200
; layer 1, Z = 0.11
M105
T0
; tool H0.11 W0.6
G1 X2.8 Y38.565 F7200
G1 Z0.11 F7200
G1 E0 F720
G92 E0
G1 X2.8 Y65.2 E0.7674 F3600
G1 X2.572 Y65.752 E0.7846
G1 X-1.014 Y69.337 E0.9307
G1 X-1.565 Y69.565 E0.9479
G1 X-46.635 Y69.565 E2.2464
G1 X-47.186 Y69.337 E2.2636
G1 X-50.772 Y65.752 E2.4097
G1 X-51 Y65.2 E2.4269
G1 X-51 Y35.13 E3.2933
G1 X-50.807 Y34.665 E3.3077
G1 X-51 Y34.2 E3.3222
G1 X-51 Y4.13 E4.1886
G1 X-50.807 Y3.665 E4.2031
G1 X-51 Y3.2 E4.2176
G1 X-51 Y-50.196 E5.756
G1 X-50.999 Y-50.235 E5.7572
G1 X-50.982 Y-50.557 E5.7665
G1 X-50.979 Y-50.596 E5.7676
G1 X-50.651 Y-53.717 E5.858
G1 X-50.639 Y-53.795 E5.8603
G1 X-50.505 Y-54.425 E5.8788
G1 X-50.484 Y-54.501 E5.8811
G1 X-49.465 Y-57.639 E5.9762
G1 X-49.437 Y-57.712 E5.9784
G1 X-49.174 Y-58.301 E5.997
G1 X-49.139 Y-58.371 E5.9993
G1 X-47.489 Y-61.229 E6.0943
G1 X-47.446 Y-61.295 E6.0966
G1 X-47.067 Y-61.816 E6.1152
G1 X-47.018 Y-61.877 E6.1174
G1 X-44.81 Y-64.329 E6.2125
G1 X-44.754 Y-64.385 E6.2148
G1 X-44.275 Y-64.816 E6.2333
G1 X-44.214 Y-64.865 E6.2356
G1 X-41.545 Y-66.805 E6.3307
G1 X-41.479 Y-66.848 E6.3329
G1 X-40.921 Y-67.17 E6.3515
G1 X-40.851 Y-67.206 E6.3538
G1 X-37.837 Y-68.548 E6.4488
G1 X-37.763 Y-68.576 E6.4511
G1 X-37.15 Y-68.775 E6.4697
G1 X-37.074 Y-68.795 E6.4719
G1 X-33.847 Y-69.481 E6.567
G1 X-33.769 Y-69.494 E6.5693
G1 X-33.128 Y-69.561 E6.5878
G1 X-33.05 Y-69.565 E6.5901
G1 X-29.75 Y-69.565 E6.6852
G1 X-29.672 Y-69.561 E6.6874
G1 X-29.031 Y-69.494 E6.706
G1 X-28.953 Y-69.481 E6.7082
G1 X-25.726 Y-68.795 E6.8033
G1 X-25.65 Y-68.775 E6.8056
G1 X-25.037 Y-68.576 E6.8242
G1 X-24.963 Y-68.548 E6.8264
G1 X-21.949 Y-67.206 E6.9215
G1 X-21.879 Y-67.17 E6.9237
G1 X-21.321 Y-66.848 E6.9423
G1 X-21.255 Y-66.805 E6.9446
G1 X-18.586 Y-64.866 E7.0396
G1 X-18.525 Y-64.816 E7.0419
G1 X-18.046 Y-64.385 E7.0605
G1 X-17.99 Y-64.329 E7.0627
G1 X-15.782 Y-61.877 E7.1578
G1 X-15.733 Y-61.816 E7.1601
G1 X-15.7 Y-61.771 E7.1617
G1 X-15.667 Y-61.816 E7.1633
G1 X-15.618 Y-61.877 E7.1655
G1 X-13.41 Y-64.329 E7.2606
G1 X-13.354 Y-64.385 E7.2629
G1 X-12.875 Y-64.816 E7.2814
G1 X-12.814 Y-64.866 E7.2837
G1 X-10.145 Y-66.805 E7.3788
G1 X-10.079 Y-66.848 E7.381
G1 X-9.521 Y-67.17 E7.3996
G1 X-9.451 Y-67.206 E7.4019
G1 X-6.437 Y-68.548 E7.4969
G1 X-6.363 Y-68.576 E7.4992
G1 X-5.75 Y-68.775 E7.5178
G1 X-5.674 Y-68.795 E7.52
G1 X-2.447 Y-69.481 E7.6151
G1 X-2.369 Y-69.494 E7.6174
G1 X-1.728 Y-69.561 E7.6359
G1 X-1.65 Y-69.565 E7.6382
G1 X1.65 Y-69.565 E7.7333
G1 X1.728 Y-69.561 E7.7355
G1 X2.369 Y-69.494 E7.7541
G1 X2.447 Y-69.481 E7.7564
G1 X5.674 Y-68.795 E7.8514
G1 X5.75 Y-68.775 E7.8537
G1 X6.363 Y-68.576 E7.8723
G1 X6.437 Y-68.548 E7.8745
G1 X9.451 Y-67.206 E7.9696
G1 X9.521 Y-67.17 E7.9719
G1 X10.079 Y-66.848 E7.9904
G1 X10.145 Y-66.805 E7.9927
G1 X12.814 Y-64.866 E8.0878
G1 X12.875 Y-64.816 E8.09
G1 X13.354 Y-64.385 E8.1086
G1 X13.41 Y-64.329 E8.1109
G1 X15.618 Y-61.877 E8.2059
G1 X15.667 Y-61.816 E8.2082
G1 X15.7 Y-61.771 E8.2098
G1 X15.733 Y-61.816 E8.2114
G1 X15.782 Y-61.877 E8.2137
G1 X17.99 Y-64.329 E8.3087
G1 X18.046 Y-64.385 E8.311
G1 X18.525 Y-64.816 E8.3296
G1 X18.586 Y-64.866 E8.3318
G1 X21.255 Y-66.805 E8.4269
G1 X21.321 Y-66.848 E8.4291
G1 X21.879 Y-67.17 E8.4477
G1 X21.949 Y-67.206 E8.45
G1 X24.963 Y-68.548 E8.545
G1 X25.037 Y-68.576 E8.5473
G1 X25.65 Y-68.775 E8.5659
G1 X25.726 Y-68.795 E8.5681
G1 X28.953 Y-69.481 E8.6632
G1 X29.031 Y-69.494 E8.6655
G1 X29.672 Y-69.561 E8.684
G1 X29.75 Y-69.565 E8.6863
G1 X33.05 Y-69.565 E8.7814
G1 X33.128 Y-69.561 E8.7836
G1 X33.769 Y-69.494 E8.8022
G1 X33.847 Y-69.481 E8.8045
G1 X37.074 Y-68.795 E8.8995
G1 X37.15 Y-68.775 E8.9018
G1 X37.763 Y-68.576 E8.9204
G1 X37.837 Y-68.548 E8.9226
G1 X40.851 Y-67.206 E9.0177
G1 X40.921 Y-67.17 E9.02
G1 X41.479 Y-66.848 E9.0385
G1 X41.545 Y-66.805 E9.0408
G1 X44.214 Y-64.865 E9.1359
G1 X44.275 Y-64.816 E9.1381
G1 X44.754 Y-64.385 E9.1567
G1 X44.81 Y-64.329 E9.159
G1 X47.018 Y-61.877 E9.254
G1 X47.067 Y-61.816 E9.2563
G1 X47.446 Y-61.295 E9.2749
G1 X47.489 Y-61.229 E9.2771
G1 X49.139 Y-58.371 E9.3722
G1 X49.174 Y-58.301 E9.3745
G1 X49.437 Y-57.712 E9.393
G1 X49.465 Y-57.639 E9.3953
G1 X50.484 Y-54.501 E9.4904
G1 X50.505 Y-54.425 E9.4926
G1 X50.639 Y-53.795 E9.5112
G1 X50.651 Y-53.717 E9.5135
G1 X50.979 Y-50.596 E9.6039
G1 X50.982 Y-50.557 E9.605
G1 X50.999 Y-50.235 E9.6143
G1 X51 Y-50.196 E9.6154
G1 X51 Y3.2 E11.1538
G1 X50.772 Y3.752 E11.171
G1 X48.8 Y5.723 E11.2514
G1 X48.8 Y34.2 E12.0718
G1 X48.572 Y34.752 E12.089
G1 X44.986 Y38.337 E12.2351
G1 X44.435 Y38.565 E12.2523
G1 X3.8 Y38.565 E13.4231
G1 X2.8 Y38.565 F3600
G1 X2.2 Y37.965 F7200
G92 E0
G1 X2.2 Y65.081 E0.7812 F3600
G1 X2.063 Y65.412 E0.7916
G1 X-1.353 Y68.828 E0.9308
G1 X-1.684 Y68.965 E0.9411
G1 X-46.516 Y68.965 E2.2328
G1 X-46.847 Y68.828 E2.2431
G1 X-50.263 Y65.412 E2.3823
G1 X-50.4 Y65.081 E2.3926
G1 X-50.4 Y35.249 E3.2521
G1 X-50.263 Y34.919 E3.2624
G1 X-50.01 Y34.665 E3.2727
G1 X-50.263 Y34.412 E3.2831
G1 X-50.4 Y34.081 E3.2934
G1 X-50.4 Y4.249 E4.1529
G1 X-50.263 Y3.919 E4.1632
G1 X-50.01 Y3.665 E4.1735
G1 X-50.263 Y3.412 E4.1838
G1 X-50.4 Y3.081 E4.1941
G1 X-50.4 Y-50.188 E5.7289
G1 X-50.399 Y-50.212 E5.7296
G1 X-50.383 Y-50.517 E5.7384
G1 X-50.381 Y-50.541 E5.7391
G1 X-50.056 Y-53.639 E5.8288
G1 X-50.049 Y-53.685 E5.8302
G1 X-49.921 Y-54.285 E5.8479
G1 X-49.909 Y-54.331 E5.8492
G1 X-48.899 Y-57.439 E5.9434
G1 X-48.882 Y-57.483 E5.9447
G1 X-48.633 Y-58.043 E5.9624
G1 X-48.611 Y-58.085 E5.9638
G1 X-46.977 Y-60.915 E6.0579
G1 X-46.952 Y-60.955 E6.0593
G1 X-46.591 Y-61.451 E6.0769
G1 X-46.561 Y-61.487 E6.0783
G1 X-44.375 Y-63.916 E6.1725
G1 X-44.341 Y-63.949 E6.1738
G1 X-43.886 Y-64.36 E6.1915
G1 X-43.849 Y-64.389 E6.1928
G1 X-41.205 Y-66.31 E6.287
G1 X-41.166 Y-66.336 E6.2884
G1 X-40.635 Y-66.643 E6.306
G1 X-40.593 Y-66.664 E6.3074
G1 X-37.607 Y-67.993 E6.4015
G1 X-37.563 Y-68.01 E6.4029
G1 X-36.98 Y-68.2 E6.4206
G1 X-36.934 Y-68.212 E6.4219
G1 X-33.737 Y-68.891 E6.5161
G1 X-33.691 Y-68.899 E6.5174
G1 X-33.081 Y-68.963 E6.5351
G1 X-33.034 Y-68.965 E6.5365
G1 X-29.766 Y-68.965 E6.6306
G1 X-29.719 Y-68.963 E6.632
G1 X-29.109 Y-68.899 E6.6497
G1 X-29.063 Y-68.891 E6.651
G1 X-25.866 Y-68.212 E6.7452
G1 X-25.82 Y-68.2 E6.7465
G1 X-25.237 Y-68.01 E6.7642
G1 X-25.193 Y-67.993 E6.7656
G1 X-22.207 Y-66.664 E6.8597
G1 X-22.165 Y-66.643 E6.8611
G1 X-21.634 Y-66.336 E6.8787
G1 X-21.595 Y-66.31 E6.8801
G1 X-18.951 Y-64.389 E6.9743
G1 X-18.914 Y-64.36 E6.9756
G1 X-18.459 Y-63.949 E6.9933
G1 X-18.425 Y-63.916 E6.9946
G1 X-16.239 Y-61.487 E7.0888
G1 X-16.209 Y-61.451 E7.0902
G1 X-15.848 Y-60.955 E7.1078
G1 X-15.823 Y-60.915 E7.1092
G1 X-15.7 Y-60.702 E7.1163
G1 X-15.577 Y-60.915 E7.1233
G1 X-15.552 Y-60.955 E7.1247
G1 X-15.191 Y-61.451 E7.1424
G1 X-15.161 Y-61.487 E7.1437
G1 X-12.975 Y-63.916 E7.2379
G1 X-12.941 Y-63.949 E7.2392
G1 X-12.486 Y-64.36 E7.2569
G1 X-12.449 Y-64.389 E7.2583
G1 X-9.805 Y-66.31 E7.3524
G1 X-9.765 Y-66.336 E7.3538
G1 X-9.235 Y-66.643 E7.3714
G1 X-9.193 Y-66.664 E7.3728
G1 X-6.207 Y-67.993 E7.467
G1 X-6.163 Y-68.01 E7.4683
G1 X-5.58 Y-68.2 E7.486
G1 X-5.534 Y-68.212 E7.4873
G1 X-2.337 Y-68.891 E7.5815
G1 X-2.291 Y-68.899 E7.5829
G1 X-1.681 Y-68.963 E7.6005
G1 X-1.634 Y-68.965 E7.6019
G1 X1.634 Y-68.965 E7.6961
G1 X1.681 Y-68.963 E7.6974
G1 X2.291 Y-68.899 E7.7151
G1 X2.337 Y-68.891 E7.7164
G1 X5.534 Y-68.212 E7.8106
G1 X5.58 Y-68.2 E7.812
G1 X6.163 Y-68.01 E7.8296
G1 X6.207 Y-67.993 E7.831
G1 X9.193 Y-66.664 E7.9251
G1 X9.235 Y-66.643 E7.9265
G1 X9.765 Y-66.336 E7.9442
G1 X9.805 Y-66.31 E7.9455
G1 X12.449 Y-64.389 E8.0397
G1 X12.486 Y-64.36 E8.041
G1 X12.941 Y-63.949 E8.0587
G1 X12.975 Y-63.916 E8.0601
G1 X15.161 Y-61.487 E8.1542
G1 X15.191 Y-61.451 E8.1556
G1 X15.552 Y-60.955 E8.1732
G1 X15.577 Y-60.915 E8.1746
G1 X15.7 Y-60.702 E8.1817
G1 X15.823 Y-60.915 E8.1888
G1 X15.848 Y-60.955 E8.1901
G1 X16.209 Y-61.451 E8.2078
G1 X16.239 Y-61.487 E8.2091
G1 X18.425 Y-63.916 E8.3033
G1 X18.459 Y-63.949 E8.3047
G1 X18.914 Y-64.36 E8.3223
G1 X18.951 Y-64.389 E8.3237
G1 X21.595 Y-66.31 E8.4178
G1 X21.635 Y-66.336 E8.4192
G1 X22.165 Y-66.643 E8.4369
G1 X22.207 Y-66.664 E8.4382
G1 X25.193 Y-67.993 E8.5324
G1 X25.237 Y-68.01 E8.5337
G1 X25.82 Y-68.2 E8.5514
G1 X25.866 Y-68.212 E8.5528
G1 X29.063 Y-68.891 E8.6469
G1 X29.109 Y-68.899 E8.6483
G1 X29.719 Y-68.963 E8.666
G1 X29.766 Y-68.965 E8.6673
G1 X33.034 Y-68.965 E8.7615
G1 X33.081 Y-68.963 E8.7628
G1 X33.691 Y-68.899 E8.7805
G1 X33.737 Y-68.891 E8.7819
G1 X36.934 Y-68.212 E8.876
G1 X36.98 Y-68.2 E8.8774
G1 X37.563 Y-68.01 E8.895
G1 X37.607 Y-67.993 E8.8964
G1 X40.593 Y-66.664 E8.9906
G1 X40.635 Y-66.643 E8.9919
G1 X41.166 Y-66.336 E9.0096
G1 X41.205 Y-66.31 E9.0109
G1 X43.849 Y-64.389 E9.1051
G1 X43.886 Y-64.36 E9.1065
G1 X44.341 Y-63.949 E9.1241
G1 X44.375 Y-63.916 E9.1255
G1 X46.561 Y-61.487 E9.2196
G1 X46.591 Y-61.451 E9.221
G1 X46.952 Y-60.955 E9.2387
G1 X46.977 Y-60.915 E9.24
G1 X48.611 Y-58.085 E9.3342
G1 X48.633 Y-58.043 E9.3355
G1 X48.882 Y-57.483 E9.3532
G1 X48.899 Y-57.439 E9.3546
G1 X49.909 Y-54.331 E9.4487
G1 X49.921 Y-54.285 E9.4501
G1 X50.049 Y-53.685 E9.4677
G1 X50.056 Y-53.639 E9.4691
G1 X50.381 Y-50.541 E9.5588
G1 X50.383 Y-50.517 E9.5595
G1 X50.399 Y-50.212 E9.5684
G1 X50.4 Y-50.188 E9.569
G1 X50.4 Y3.081 E11.1038
G1 X50.263 Y3.412 E11.1141
G1 X48.2 Y5.475 E11.1982
G1 X48.2 Y34.081 E12.0224
G1 X48.063 Y34.412 E12.0327
G1 X44.647 Y37.828 E12.1719
G1 X44.316 Y37.965 E12.1822
G1 X3.2 Y37.965 E13.3668
G1 X2.2 Y37.965 F3600
G1 X1.6 Y37.365 F7200
G92 E0
G1 X1.6 Y64.962 E0.7951 F3600
G1 X1.554 Y65.072 E0.7985
G1 X-1.693 Y68.32 E0.9309
G1 X-1.804 Y68.365 E0.9343
G1 X-46.396 Y68.365 E2.2191
G1 X-46.507 Y68.32 E2.2225
G1 X-49.754 Y65.072 E2.3549
G1 X-49.8 Y64.962 E2.3583
G1 X-49.8 Y35.369 E3.2109
G1 X-49.754 Y35.259 E3.2144
G1 X-49.161 Y34.665 E3.2385
G1 X-49.754 Y34.072 E3.2627
G1 X-49.8 Y33.962 E3.2661
G1 X-49.8 Y4.369 E4.1188
G1 X-49.754 Y4.259 E4.1222
G1 X-49.161 Y3.665 E4.1464
G1 X-49.754 Y3.072 E4.1705
G1 X-49.8 Y2.962 E4.174
G1 X-49.8 Y-50.18 E5.7051
G1 X-49.8 Y-50.188 E5.7053
G1 X-49.785 Y-50.478 E5.7137
G1 X-49.784 Y-50.486 E5.7139
G1 X-49.461 Y-53.56 E5.803
G1 X-49.458 Y-53.576 E5.8034
G1 X-49.337 Y-54.145 E5.8202
G1 X-49.333 Y-54.16 E5.8206
G1 X-48.333 Y-57.238 E5.9139
G1 X-48.327 Y-57.253 E5.9144
G1 X-48.091 Y-57.784 E5.9311
G1 X-48.084 Y-57.798 E5.9316
G1 X-46.465 Y-60.602 E6.0248
G1 X-46.457 Y-60.615 E6.0253
G1 X-46.115 Y-61.085 E6.042
G1 X-46.105 Y-61.098 E6.0425
G1 X-43.939 Y-63.503 E6.1357
G1 X-43.928 Y-63.514 E6.1362
G1 X-43.496 Y-63.903 E6.1529
G1 X-43.484 Y-63.913 E6.1534
G1 X-40.865 Y-65.816 E6.2467
G1 X-40.852 Y-65.824 E6.2471
G1 X-40.348 Y-66.115 E6.2639
G1 X-40.334 Y-66.122 E6.2643
G1 X-37.377 Y-67.439 E6.3576
G1 X-37.363 Y-67.444 E6.358
G1 X-36.809 Y-67.624 E6.3748
G1 X-36.794 Y-67.628 E6.3752
G1 X-33.628 Y-68.301 E6.4685
G1 X-33.613 Y-68.304 E6.469
G1 X-33.034 Y-68.364 E6.4857
G1 X-33.018 Y-68.365 E6.4862
G1 X-29.782 Y-68.365 E6.5794
G1 X-29.766 Y-68.364 E6.5799
G1 X-29.187 Y-68.304 E6.5966
G1 X-29.172 Y-68.301 E6.5971
G1 X-26.006 Y-67.628 E6.6903
G1 X-25.991 Y-67.624 E6.6908
G1 X-25.437 Y-67.444 E6.7076
G1 X-25.423 Y-67.439 E6.708
G1 X-22.466 Y-66.122 E6.8013
G1 X-22.452 Y-66.115 E6.8017
G1 X-21.948 Y-65.824 E6.8185
G1 X-21.935 Y-65.816 E6.8189
G1 X-19.316 Y-63.913 E6.9122
G1 X-19.304 Y-63.903 E6.9126
G1 X-18.872 Y-63.514 E6.9294
G1 X-18.861 Y-63.503 E6.9299
G1 X-16.695 Y-61.098 E7.0231
G1 X-16.685 Y-61.085 E7.0236
G1 X-16.343 Y-60.615 E7.0403
G1 X-16.335 Y-60.602 E7.0408
G1 X-15.7 Y-59.502 E7.0773
G1 X-15.065 Y-60.602 E7.1139
G1 X-15.057 Y-60.615 E7.1144
G1 X-14.715 Y-61.085 E7.1311
G1 X-14.705 Y-61.098 E7.1316
G1 X-12.539 Y-63.503 E7.2248
G1 X-12.528 Y-63.514 E7.2253
G1 X-12.096 Y-63.903 E7.242
