; G-Code generated by Simplify3D(TM) Version 2.1.1
; Sep 21, 2014 at 7:09:23 PM
; Settings Summary
;   processName,Process1
;   applyToModels,glassmount
;   printMaterial,
;   printQuality,
;   extruderName,Primary Extruder
;   extruderToolheadNumber,0
;   extruderDiameter,0.6
;   extruderAutoWidth,0
;   extruderWidth,0.7
;   extrusionMultiplier,1.03
;   extruderUseRetract,1
;   extruderRetractionDistance,4.5
;   extruderExtraRestartDistance,0
;   extruderRetractionZLift,0.1
;   extruderRetractionSpeed,2400
;   extruderUseCoasting,0
;   extruderCoastingDistance,1
;   extruderUseWipe,0
;   extruderWipeDistance,5
;   primaryExtruder,0
;   layerHeight,0.15
;   topSolidLayers,5
;   bottomSolidLayers,5
;   perimeterOutlines,5
;   printPerimetersInsideOut,1
;   startPointOption,2
;   startPointOriginX,0
;   startPointOriginY,0
;   startPointOriginZ,0
;   sequentialIslands,0
;   spiralVaseMode,0
;   firstLayerHeightRatio,1
;   firstLayerUnderspeed,0.3
;   useRaft,0
;   raftLayers,3
;   raftOffset,3
;   raftSeparationDistance,0.14
;   raftInfill,85
;   disableRaftBaseLayers,0
;   useSkirt,1
;   skirtLayers,1
;   skirtOutlines,3
;   skirtOffset,5.4
;   infillExtruder,0
;   externalInfillPattern,Concentric
;   infillPercentage,50
;   outlineOverlapPercentage,15
;   minInfillLength,5
;   infillLayerInterval,1
;   randomInfillStartPoint,0
;   infillAngles,45,-45
;   generateSupport,0
;   supportExtruder,0
;   supportInfill,15
;   supportExtraInflation,0
;   supportLayerInterval,1
;   supportHorizontalPartOffset,0.4
;   supportUpperSeparationLayers,1
;   supportLowerSeparationLayers,1
;   supportGridSpacing,6
;   maxOverhangAngle,45
;   supportAngles,0
;   temperatureName,Primary Extruder,Heated Bed
;   temperatureNumber,0,1
;   temperatureSetpointCount,1,1
;   temperatureSetpointLayers,1,1
;   temperatureSetpointTemperatures,250,75
;   temperatureStabilizeAtStartup,1,0
;   temperatureHeatedBed,0,1
;   temperatureRelayBetweenLayers,0,0
;   temperatureRelayBetweenLoops,0,0
;   fanLayers,1
;   fanSpeeds,0
;   blipFanToFullPower,1
;   adjustSpeedForCooling,1
;   minSpeedLayerTime,15
;   minCoolingSpeedSlowdown,20
;   increaseFanForCooling,0
;   minFanLayerTime,60
;   maxCoolingFanSpeed,100
;   increaseFanForBridging,0
;   bridgingFanSpeed,100
;   use5D,1
;   relativeEdistances,0
;   allowEaxisZeroing,1
;   includeM10123,0
;   stickySupport,1
;   detectArcs,0
;   arcReplaceG2G3,0
;   arcRadialCompensation,1
;   gcodeXoffset,0
;   gcodeYoffset,0
;   gcodeZoffset,0
;   overrideMachineDefinition,0
;   machineTypeOverride,1
;   strokeXoverride,170
;   strokeYoverride,170
;   strokeZoverride,185
;   originOffsetXoverride,0
;   originOffsetYoverride,0
;   originOffsetZoverride,0
;   homeXdirOverride,0
;   homeYdirOverride,0
;   homeZdirOverride,1
;   flipXoverride,1
;   flipYoverride,1
;   flipZoverride,1
;   startingGcode,G28 ; home all axes
;   layerChangeGcode,
;   toolChangeGcode,
;   endingGcode,M104 S0 ; turn off extruder,M140 S0 ; turn off bed,G28 ; home axes,M84 ; disable motors
;   createX3G,0
;   celebration,0
;   celebrationSong,Random Song
;   postProcessing,
;   defaultSpeed,6000
;   outlineUnderspeed,0.5
;   supportUnderspeed,1
;   rapidXYspeed,6000
;   rapidZspeed,6000
;   minBridgingArea,50
;   bridgingExtrusionMultiplier,0.95
;   bridgingSpeedMultiplier,0.7
;   filamentDiameter,1.75
;   filamentPricePerKg,26
;   useMinPrintHeight,0
;   minPrintHeight,0
;   useMaxPrintHeight,0
;   maxPrintHeight,0
;   overlapRemoval,0
;   overlapRemovalPercentage,0.3
;   useDiaphragm,0
;   diaphragmLayerInterval,1
;   robustSlicing,1
;   mergeAllIntoSolid,0
;   onlyRetractWhenCrossingOutline,1
;   retractBetweenLayers,0
;   useRetractionMinTravel,1
;   retractionMinTravel,1.5
;   useRetractionOozeRate,0
;   retractionOozeRate,100
;   onlyWipeOutlines,1
G90 ; use absolute coordinates
M82 ; absolute extrusion distances
G21 ; set units to millimeters
M106 S0
M140 S75
M104 S250 T0
M109 S250 T0
G28 ; home all axes
G92 E0
G1 E-4.5 F2400
G0 Z0.25 F6000
; layer 1, Z = 0.15
T0
; tool H0.15 W0.7
G0 X6.146 Y3.38 F6000
G0 Z0.15 F6000
G1 E0 F720
G92 E0
G1 X0.242 Y8.584 E0.3539 F1800
G1 X-21.804 Y-17.69 E1.8961
G1 X-15.731 Y-23.046 E2.2602
G1 X-8.914 Y-28.335 E2.6481
G1 X-1.788 Y-33.178 E3.0355
G1 X1.118 Y-34.897 E3.1873
G1 X-8.299 Y-52.609 E4.0893
G1 X-0.632 Y-56.892 E4.4842
G1 X8.284 Y-61.165 E4.9287
G1 X17.438 Y-64.863 E5.3727
G1 X26.806 Y-67.979 E5.8166
G1 X43.267 Y-72.33 E6.5821
G1 X47.869 Y-52.395 E7.502
G1 X54.513 Y-53.448 E7.8045
G1 X63.091 Y-54.258 E8.1919
G1 X78.853 Y-54.754 E8.901
G1 X78.853 Y-20.447 E10.4436
G1 X65.245 Y-20.019 E11.0557
G1 X58.813 Y-19.411 E11.3462
G1 X52.432 Y-18.401 E11.6367
G1 X46.126 Y-16.991 E11.9272
G1 X39.922 Y-15.188 E12.2177
G1 X33.843 Y-12.999 E12.5083
G1 X27.913 Y-10.434 E12.7988
G1 X22.156 Y-7.501 E13.0893
G1 X16.595 Y-4.212 E13.3798
G1 X11.251 Y-0.58 E13.6703
G1 X6.146 Y3.38 E13.9608
G0 X-2.658 Y10.894 F6000
G92 E0
G1 X-11.078 Y21.593 E0.6122 F1800
G1 X-14.746 Y26.912 E0.9027
G1 X-18.074 Y32.45 E1.1932
G1 X-21.047 Y38.186 E1.4837
G1 X-23.654 Y44.097 E1.7742
G1 X-25.885 Y50.161 E2.0647
G1 X-27.732 Y56.353 E2.3552
G1 X-29.185 Y62.647 E2.6457
G1 X-30.703 Y71.828 E3.0641
G1 X-64.476 Y65.873 E4.6061
G1 X-62.838 Y55.984 E5.0567
G1 X-61.325 Y49.43 E5.3592
G1 X-80.486 Y43.572 E6.2601
G1 X-78.095 Y35.108 E6.6556
G1 X-74.815 Y25.794 E7.0996
G1 X-70.958 Y16.706 E7.5435
G1 X-66.536 Y7.878 E7.9874
G1 X-57.972 Y-6.837 E8.7529
G1 X-40.608 Y4.014 E9.6736
G1 X-38.691 Y1.235 E9.8254
G1 X-28.939 Y-11.158 E10.5345
G1 X-2.658 Y10.894 E12.077
G0 X-3.628 Y10.995 F6000
G92 E0
G1 X-11.641 Y21.178 E0.5826 F1800
G1 X-15.335 Y26.532 E0.8751
G1 X-18.685 Y32.108 E1.1676
G1 X-21.679 Y37.883 E1.4601
G1 X-24.304 Y43.835 E1.7526
G1 X-26.55 Y49.94 E2.0451
G1 X-28.409 Y56.174 E2.3376
G1 X-29.872 Y62.511 E2.63
G1 X-31.278 Y71.016 E3.0176
G1 X-63.673 Y65.304 E4.4966
G1 X-62.151 Y56.12 E4.9152
G1 X-60.496 Y48.952 E5.246
G1 X-79.626 Y43.103 E6.1454
G1 X-77.428 Y35.319 E6.5091
G1 X-74.162 Y26.047 E6.9511
G1 X-70.322 Y17 E7.393
G1 X-65.92 Y8.211 E7.835
G1 X-57.731 Y-5.861 E8.5671
G1 X-40.412 Y4.962 E9.4853
G1 X-38.127 Y1.65 E9.6662
G1 X-28.836 Y-10.157 E10.3418
G1 X-3.628 Y10.995 E11.8214
G0 X0.317 Y7.585 F6000
G92 E0
G1 X-20.829 Y-17.617 E1.4792 F1800
G1 X-15.285 Y-22.507 E1.8116
G1 X-8.502 Y-27.768 E2.1976
G1 X-1.412 Y-32.587 E2.583
G1 X2.05 Y-34.635 E2.7639
G1 X-7.359 Y-52.332 E3.6651
G1 X-0.309 Y-56.27 E4.0282
G1 X8.567 Y-60.524 E4.4708
G1 X17.68 Y-64.206 E4.9128
G1 X27.006 Y-67.308 E5.3547
G1 X42.748 Y-71.468 E6.0868
G1 X47.334 Y-51.602 E7.0035
G1 X54.601 Y-52.753 E7.3344
G1 X63.135 Y-53.559 E7.7198
G1 X78.153 Y-54.032 E8.3954
G1 X78.153 Y-21.125 E9.875
G1 X65.201 Y-20.718 E10.4576
G1 X58.725 Y-20.106 E10.7501
G1 X52.3 Y-19.089 E11.0426
G1 X45.952 Y-17.669 E11.3351
G1 X39.705 Y-15.854 E11.6276
G1 X33.585 Y-13.651 E11.9201
G1 X27.615 Y-11.067 E12.2126
G1 X21.819 Y-8.114 E12.505
G1 X16.22 Y-4.803 E12.7975
G1 X10.84 Y-1.147 E13.09
G1 X5.7 Y2.84 E13.3825
G1 X0.317 Y7.585 E13.7051
G0 X0.393 Y6.585 F6000
G92 E0
G1 X-19.854 Y-17.544 E1.4163 F1800
G1 X-14.838 Y-21.967 E1.717
G1 X-8.091 Y-27.202 E2.1009
G1 X-1.037 Y-31.996 E2.4844
G1 X2.982 Y-34.373 E2.6944
G1 X-6.419 Y-52.055 E3.5948
G1 X0.013 Y-55.648 E3.9261
G1 X8.849 Y-59.883 E4.3667
G1 X17.922 Y-63.549 E4.8067
G1 X27.206 Y-66.637 E5.2466
G1 X42.228 Y-70.607 E5.9453
G1 X46.799 Y-50.808 E6.8589
G1 X54.689 Y-52.058 E7.2181
G1 X63.179 Y-52.86 E7.6015
G1 X77.453 Y-53.309 E8.2437
G1 X77.453 Y-21.803 E9.6603
G1 X65.157 Y-21.417 E10.2134
G1 X58.637 Y-20.801 E10.5079
G1 X52.169 Y-19.777 E10.8023
G1 X45.778 Y-18.348 E11.0968
G1 X39.489 Y-16.52 E11.3913
G1 X33.327 Y-14.302 E11.6858
G1 X27.317 Y-11.701 E11.9802
G1 X21.482 Y-8.728 E12.2747
G1 X15.845 Y-5.394 E12.5691
G1 X10.428 Y-1.713 E12.8636
G1 X5.253 Y2.301 E13.1581
G1 X0.393 Y6.585 E13.4494
G0 X-4.597 Y11.095 F6000
G92 E0
G1 X-12.205 Y20.762 E0.5531 F1800
G1 X-15.924 Y26.153 E0.8476
G1 X-19.297 Y31.766 E1.1421
G1 X-22.31 Y37.581 E1.4365
G1 X-24.953 Y43.573 E1.731
G1 X-27.214 Y49.719 E2.0255
G1 X-29.086 Y55.995 E2.3199
G1 X-30.559 Y62.375 E2.6144
G1 X-31.854 Y70.203 E2.9711
G1 X-62.869 Y64.735 E4.3872
G1 X-61.464 Y56.256 E4.7736
G1 X-59.667 Y48.473 E5.1327
G1 X-78.766 Y42.634 E6.0307
G1 X-76.76 Y35.531 E6.3626
G1 X-73.509 Y26.3 E6.8026
G1 X-69.686 Y17.293 E7.2426
G1 X-65.304 Y8.545 E7.6826
G1 X-57.489 Y-4.884 E8.3812
G1 X-40.215 Y5.91 E9.297
G1 X-37.563 Y2.066 E9.507
G1 X-28.732 Y-9.157 E10.1491
G1 X-4.597 Y11.095 E11.5657
G92 E0
G1 E-4.5 F2400
G0 Z0.25 F6000
G0 X-16.925 Y12.369 F6000
G0 Z0.15 F6000
G1 E0 F2400
G92 E0
G1 X-19.372 Y15.478 E0.1779 F1620
G1 X-23.408 Y21.329 E0.4975
G1 X-27.069 Y27.422 E0.8171
G1 X-30.341 Y33.733 E1.1368
G1 X-33.209 Y40.237 E1.4564
G1 X-35.663 Y46.908 E1.776
G1 X-37.695 Y53.72 E2.0956
G1 X-39.118 Y59.885 E2.3801
G1 X-52.618 Y57.505 E2.9965
G1 X-50.937 Y50.221 E3.3326
G1 X-48.645 Y42.536 E3.6932
G1 X-67.736 Y36.7 E4.5908
G1 X-65.208 Y29.52 E4.933
G1 X-63.518 Y25.541 E5.1274
G1 X-61.434 Y31.268 E5.4014
G1 X-53.322 Y32.698 E5.7718
G1 X-48.027 Y26.388 E6.1422
G1 X-50.844 Y18.648 E6.5126
G1 X-58.956 Y17.217 E6.883
G1 X-60.787 Y19.399 E7.011
G1 X-57.472 Y12.78 E7.3439
G1 X-54.417 Y7.53 E7.617
G1 X-37.457 Y18.128 E8.5162
G1 X-34.922 Y13.91 E8.7375
G1 X-30.396 Y7.35 E9.0959
G1 X-27.417 Y3.565 E9.3125
G1 X-16.925 Y12.369 E9.9283
G0 X-22.061 Y14.169 F6000
G92 E0
G1 X-24.145 Y10.165 E0.203 F1620
G1 X-28.45 Y8.807 E0.4059
G1 X-32.454 Y10.892 E0.6089
G1 X-33.81 Y15.197 E0.8119
G1 X-31.727 Y19.2 E1.0148
G1 X-27.422 Y20.558 E1.2177
G1 X-23.418 Y18.473 E1.4207
G1 X-22.061 Y14.169 E1.6237
G0 X-40.91 Y45.702 F6000
G92 E0
G1 X-45.215 Y44.345 E0.203 F1620
G1 X-49.219 Y46.429 E0.4059
G1 X-50.577 Y50.733 E0.6088
G1 X-48.493 Y54.738 E0.8118
G1 X-44.187 Y56.095 E1.0148
G1 X-40.183 Y54.011 E1.2178
G1 X-38.827 Y49.706 E1.4207
G1 X-40.91 Y45.702 E1.6237
G0 X-15.955 Y12.269 F6000
G92 E0
G1 X-18.808 Y15.894 E0.2074 F1440
G1 X-22.82 Y21.709 E0.5251
G1 X-26.458 Y27.764 E0.8427
G1 X-29.709 Y34.036 E1.1603
G1 X-32.56 Y40.5 E1.478
G1 X-34.999 Y47.129 E1.7956
G1 X-37.018 Y53.899 E2.1133
G1 X-38.585 Y60.69 E2.4266
G1 X-53.453 Y58.068 E3.1054
G1 X-53.416 Y57.85 E3.1154
G1 X-51.614 Y50.043 E3.4756
G1 X-49.515 Y43.002 E3.806
G1 X-68.639 Y37.156 E4.7051
G1 X-65.861 Y29.267 E5.0812
G1 X-62.239 Y20.735 E5.498
G1 X-58.088 Y12.447 E5.9148
G1 X-54.658 Y6.554 E6.2213
G1 X-37.69 Y17.157 E7.121
G1 X-35.511 Y13.53 E7.3112
G1 X-30.96 Y6.935 E7.6715
G1 X-27.521 Y2.564 E7.9216
G1 X-15.955 Y12.269 E8.6004
G0 X-22.815 Y14.235 F6000
G92 E0
G1 X-24.632 Y10.745 E0.1769 F1440
G1 X-28.384 Y9.562 E0.3538
G1 X-31.874 Y11.379 E0.5307
G1 X-33.055 Y15.131 E0.7076
G1 X-31.24 Y18.62 E0.8844
G1 X-27.488 Y19.803 E1.0613
G1 X-23.998 Y17.986 E1.2382
G1 X-22.815 Y14.235 E1.4151
G92 E0
G1 E-4.5 F2400
G0 Z0.25 F6000
G0 X-48.823 Y26.248 F6000
G0 Z0.15 F6000
G1 E0 F2400
G92 E0
G1 X-51.363 Y19.267 E0.334 F1440
G1 X-58.68 Y17.977 E0.6681
G1 X-63.455 Y23.668 E1.0021
G1 X-60.915 Y30.649 E1.3361
G1 X-53.598 Y31.939 E1.6702
G1 X-48.823 Y26.248 E2.0042
G0 X-41.397 Y46.283 F6000
G92 E0
G1 X-45.149 Y45.1 E0.1769 F1440
G1 X-48.638 Y46.916 E0.3538
G1 X-49.822 Y50.668 E0.5306
G1 X-48.006 Y54.158 E0.7075
G1 X-44.253 Y55.34 E0.8845
G1 X-40.763 Y53.524 E1.0614
G1 X-39.581 Y49.772 E1.2382
G1 X-41.397 Y46.283 E1.4151
G0 X-14.986 Y12.168 F6000
G92 E0
G1 X-18.245 Y16.309 E0.2369 F1260
G1 X-22.231 Y22.088 E0.5526
G1 X-25.847 Y28.106 E0.8683
G1 X-29.078 Y34.339 E1.1839
G1 X-31.91 Y40.762 E1.4996
G1 X-34.334 Y47.35 E1.8152
G1 X-36.341 Y54.078 E2.1309
G1 X-37.92 Y60.919 E2.4466
G1 X-38.016 Y61.501 E2.4731
G1 X-54.256 Y58.637 E3.2146
G1 X-54.103 Y57.714 E3.2567
G1 X-52.291 Y49.864 E3.6189
G1 X-50.384 Y43.469 E3.919
G1 X-69.541 Y37.612 E4.8197
G1 X-66.514 Y29.014 E5.2296
G1 X-62.875 Y20.441 E5.6483
G1 X-58.704 Y12.114 E6.0671
G1 X-54.9 Y5.578 E6.4071
G1 X-37.923 Y16.186 E7.3073
G1 X-36.099 Y13.151 E7.4665
G1 X-31.524 Y6.519 E7.8288
G1 X-27.624 Y1.563 E8.1123
G1 X-14.986 Y12.168 E8.8541
G0 X-23.57 Y14.301 F6000
G92 E0
G1 X-25.119 Y11.325 E0.1508 F1260
G1 X-28.318 Y10.317 E0.3016
G1 X-31.293 Y11.866 E0.4525
G1 X-32.301 Y15.065 E0.6033
G1 X-30.753 Y18.039 E0.754
G1 X-27.554 Y19.048 E0.9049
G1 X-24.579 Y17.499 E1.0557
G1 X-23.57 Y14.301 E1.2065
G92 E0
G1 E-4.5 F2400
G0 Z0.25 F6000
G0 X-49.619 Y26.108 F6000
G0 Z0.15 F6000
G1 E0 F2400
G92 E0
G1 X-51.883 Y19.886 E0.2977 F1260
G1 X-58.403 Y18.736 E0.5954
G1 X-62.659 Y23.808 E0.8931
G1 X-60.395 Y30.03 E1.1908
G1 X-53.875 Y31.179 E1.4885
G1 X-49.619 Y26.108 E1.7861
G0 X-41.884 Y46.863 F6000
G92 E0
G1 X-45.083 Y45.854 E0.1508 F1260
G1 X-48.058 Y47.403 E0.3016
G1 X-49.067 Y50.602 E0.4524
G1 X-47.519 Y53.577 E0.6032
G1 X-44.319 Y54.586 E0.7541
G1 X-41.344 Y53.037 E0.9049
G1 X-40.336 Y49.838 E1.0557
G1 X-41.884 Y46.863 E1.2065
G0 X-14.016 Y12.068 F6000
G92 E0
G1 X-17.681 Y16.725 E0.2664 F1080
G1 X-21.642 Y22.467 E0.5801
G1 X-25.235 Y28.447 E0.8938
G1 X-28.446 Y34.641 E1.2075
G1 X-31.261 Y41.024 E1.5212
G1 X-33.67 Y47.571 E1.8348
G1 X-35.664 Y54.257 E2.1485
G1 X-37.233 Y61.055 E2.4622
G1 X-37.441 Y62.313 E2.5196
G1 X-55.06 Y59.206 E3.324
G1 X-54.79 Y57.578 E3.3983
G1 X-52.968 Y49.685 E3.7625
G1 X-51.254 Y43.935 E4.0323
G1 X-70.413 Y38.077 E4.9331
G1 X-70.275 Y37.586 E4.9561
G1 X-67.167 Y28.761 E5.3768
G1 X-63.51 Y20.147 E5.7975
G1 X-59.32 Y11.78 E6.2183
G1 X-55.142 Y4.601 E6.5918
G1 X-38.156 Y15.215 E7.4923
G1 X-36.688 Y12.771 E7.6205
G1 X-32.087 Y6.103 E7.9848
G1 X-27.728 Y0.563 E8.3018
G1 X-14.016 Y12.068 E9.1066
G0 X-24.325 Y14.367 F6000
G92 E0
G1 X-25.606 Y11.906 E0.1247 F1080
G1 X-28.252 Y11.072 E0.2495
G1 X-30.713 Y12.353 E0.3742
G1 X-31.546 Y14.998 E0.499
G1 X-30.266 Y17.459 E0.6237
G1 X-27.62 Y18.293 E0.7484
G1 X-25.159 Y17.012 E0.8731
G1 X-24.325 Y14.367 E0.9979
G92 E0
G1 E-4.5 F2400
G0 Z0.25 F6000
G0 X-50.415 Y25.967 F6000
G0 Z0.15 F6000
G1 E0 F2400
G92 E0
G1 X-52.403 Y20.505 E0.2613 F1080
G1 X-58.127 Y19.496 E0.5227
G1 X-61.863 Y23.948 E0.784
G1 X-59.875 Y29.41 E1.0454
G1 X-54.151 Y30.42 E1.3067
G1 X-50.415 Y25.967 E1.5681
G0 X-42.371 Y47.443 F6000
G92 E0
G1 X-45.017 Y46.609 E0.1247 F1080
G1 X-47.478 Y47.89 E0.2495
G1 X-48.312 Y50.536 E0.3742
G1 X-47.032 Y52.997 E0.4989
G1 X-44.385 Y53.831 E0.6237
G1 X-41.924 Y52.55 E0.7484
G1 X-41.091 Y49.904 E0.8732
G1 X-42.371 Y47.443 E0.9979
G0 X-13.047 Y11.968 F6000
G92 E0
G1 X-17.117 Y17.141 E0.296 F900
G1 X-21.054 Y22.847 E0.6077
G1 X-24.624 Y28.789 E0.9194
G1 X-27.814 Y34.944 E1.2311
G1 X-30.612 Y41.287 E1.5428
G1 X-33.005 Y47.792 E1.8545
G1 X-34.987 Y54.436 E2.1662
G1 X-36.545 Y61.191 E2.4779
G1 X-36.866 Y63.125 E2.5661
G1 X-55.864 Y59.776 E3.4335
G1 X-55.478 Y57.442 E3.5398
G1 X-53.645 Y49.506 E3.906
G1 X-52.123 Y44.401 E4.1456
G1 X-71.273 Y38.546 E5.046
G1 X-70.942 Y37.375 E5.1007
G1 X-67.82 Y28.507 E5.5234
G1 X-64.146 Y19.853 E5.9461
G1 X-59.936 Y11.447 E6.3688
G1 X-55.383 Y3.625 E6.7758
G1 X-38.389 Y14.244 E7.6768
G1 X-37.277 Y12.392 E7.774
G1 X-32.651 Y5.688 E8.1402
G1 X-27.831 Y-0.438 E8.4907
G1 X-13.047 Y11.968 E9.3585
G0 X-25.08 Y14.433 F6000
G92 E0
G1 X-26.093 Y12.486 E0.0987 F900
G1 X-28.186 Y11.826 E0.1973
G1 X-30.132 Y12.84 E0.296
G1 X-30.791 Y14.932 E0.3947
G1 X-29.779 Y16.879 E0.4933
G1 X-27.686 Y17.539 E0.592
G1 X-25.74 Y16.525 E0.6906
G1 X-25.08 Y14.433 E0.7893
G92 E0
G1 E-4.5 F2400
G0 Z0.25 F6000
G0 X-51.211 Y25.827 F6000
G0 Z0.15 F6000
G1 E0 F2400
G92 E0
G1 X-52.922 Y21.124 E0.225 F900
G1 X-57.85 Y20.255 E0.45
G1 X-61.067 Y24.089 E0.675
G1 X-59.356 Y28.791 E0.9
G1 X-54.428 Y29.66 E1.125
G1 X-51.211 Y25.827 E1.35
G0 X-42.858 Y48.024 F6000
G92 E0
G1 X-44.951 Y47.364 E0.0987 F900
G1 X-46.897 Y48.377 E0.1973
G1 X-47.557 Y50.47 E0.296
G1 X-46.545 Y52.416 E0.3946
G1 X-44.451 Y53.076 E0.4933
G1 X-42.505 Y52.063 E0.592
G1 X-41.846 Y49.97 E0.6906
G1 X-42.858 Y48.024 E0.7893
G0 X-40.496 Y45.209 F6000
G92 E0
G1 X-45.271 Y43.703 E0.2251 F1800
G1 X-48.942 Y45.614 E0.4112
G1 X-47.906 Y42.14 E0.5742
G1 X-66.969 Y36.312 E1.4705
G1 X-64.653 Y29.736 E1.784
G1 X-63.561 Y27.164 E1.9096
G1 X-61.876 Y31.794 E2.1312
G1 X-53.087 Y33.344 E2.5325
G1 X-47.35 Y26.508 E2.9338
G1 X-50.402 Y18.121 E3.335
