; G-Code generated by Simplify3D(TM) Version 2.2.0
; Dec 14, 2014 at 10:27:06 AM
; Settings Summary
;   processName,Process1
;   applyToModels,miwi_mount
;   profileLabel,Delta9000NoSupport245.fff
;   printMaterial,
;   printQuality,
;   extruderName,Primary Extruder
;   extruderToolheadNumber,0
;   extruderDiameter,0.6
;   extruderAutoWidth,0
;   extruderWidth,0.65
;   extrusionMultiplier,1
;   extruderUseRetract,1
;   extruderRetractionDistance,4.5
;   extruderExtraRestartDistance,0
;   extruderRetractionZLift,0.1
;   extruderRetractionSpeed,2400
;   extruderUseCoasting,1
;   extruderCoastingDistance,1
;   extruderUseWipe,1
;   extruderWipeDistance,4
;   primaryExtruder,0
;   layerHeight,0.1
;   topSolidLayers,6
;   bottomSolidLayers,6
;   perimeterOutlines,6
;   printPerimetersInsideOut,0
;   startPointOption,2
;   startPointOriginX,0
;   startPointOriginY,0
;   startPointOriginZ,300
;   sequentialIslands,0
;   spiralVaseMode,0
;   firstLayerHeightPercentage,120
;   firstLayerWidthPercentage,100
;   firstLayerUnderspeed,0.1
;   useRaft,0
;   raftExtruder,0
;   raftLayers,3
;   raftOffset,3
;   raftSeparationDistance,0.14
;   raftInfill,85
;   disableRaftBaseLayers,0
;   useSkirt,1
;   skirtExtruder,0
;   skirtLayers,1
;   skirtOutlines,3
;   skirtOffset,5.4
;   infillExtruder,0
;   externalInfillPattern,Rectilinear
;   infillPercentage,50
;   outlineOverlapPercentage,15
;   infillExtrusionWidthPercentage,100
;   minInfillLength,5
;   infillLayerInterval,1
;   randomInfillStartPoint,0
;   infillAngles,45,-45
;   generateSupport,0
;   supportExtruder,0
;   supportInfill,40
;   supportExtraInflation,0
;   denseSupportLayers,0
;   denseSupportInfill,75
;   supportLayerInterval,1
;   supportHorizontalPartOffset,0.3
;   supportUpperSeparationLayers,1
;   supportLowerSeparationLayers,1
;   supportGridSpacing,4
;   maxOverhangAngle,45
;   supportAngles,0
;   temperatureName,Primary Extruder,Heated Bed
;   temperatureNumber,0,1
;   temperatureSetpointCount,1,1
;   temperatureSetpointLayers,1,1
;   temperatureSetpointTemperatures,248,90
;   temperatureStabilizeAtStartup,1,0
;   temperatureHeatedBed,0,1
;   temperatureRelayBetweenLayers,1,1
;   temperatureRelayBetweenLoops,0,0
;   fanLayers,1
;   fanSpeeds,0
;   blipFanToFullPower,1
;   adjustSpeedForCooling,1
;   minSpeedLayerTime,15
;   minCoolingSpeedSlowdown,20
;   increaseFanForCooling,0
;   minFanLayerTime,60
;   maxCoolingFanSpeed,100
;   increaseFanForBridging,0
;   bridgingFanSpeed,100
;   use5D,1
;   relativeEdistances,0
;   allowEaxisZeroing,1
;   independentExtruderAxes,0
;   includeM10123,0
;   stickySupport,1
;   detectArcs,0
;   arcReplaceG2G3,0
;   arcRadialCompensation,1
;   gcodeXoffset,0
;   gcodeYoffset,0
;   gcodeZoffset,0
;   overrideMachineDefinition,0
;   machineTypeOverride,1
;   strokeXoverride,170
;   strokeYoverride,170
;   strokeZoverride,185
;   originOffsetXoverride,0
;   originOffsetYoverride,0
;   originOffsetZoverride,0
;   homeXdirOverride,0
;   homeYdirOverride,0
;   homeZdirOverride,1
;   flipXoverride,1
;   flipYoverride,1
;   flipZoverride,1
;   startingGcode,G28 ; home all axes
;   layerChangeGcode,
;   toolChangeGcode,
;   endingGcode,M104 S0 ; turn off extruder,M140 S0 ; turn off bed,G28 ; home axes,M84 ; disable motors
;   createX3G,0
;   celebration,0
;   celebrationSong,Random Song
;   createMB5G,0
;   postProcessing,
;   defaultSpeed,18000
;   outlineUnderspeed,0.15
;   solidInfillUnderspeed,1
;   supportUnderspeed,1
;   rapidXYspeed,18000
;   rapidZspeed,18000
;   minBridgingArea,50
;   bridgingExtrusionMultiplier,0.95
;   bridgingSpeedMultiplier,0.7
;   filamentDiameter,1.75
;   filamentPricePerKg,26
;   useMinPrintHeight,0
;   minPrintHeight,0
;   useMaxPrintHeight,0
;   maxPrintHeight,0
;   useDiaphragm,0
;   diaphragmLayerInterval,20
;   robustSlicing,1
;   mergeAllIntoSolid,0
;   onlyRetractWhenCrossingOutline,1
;   retractBetweenLayers,0
;   useRetractionMinTravel,1
;   retractionMinTravel,1.5
;   useRetractionOozeRate,0
;   retractionOozeRate,6000
;   onlyWipeOutlines,1
;   toolChangeRetractionDistance,0
;   toolChangeExtraRestartDistance,0
;   toolChangeRetractionSpeed,360
;   allowThinWallGapFill,1
;   thinWallAllowedOverlapPercentage,10
G90
M82
M106 S0
M140 S90
M104 S248 T0
M109 S248 T0
G28 ; home all axes
G92 E0
G1 E-4.5 F2400
G1 Z0.22 F18000
; layer 1, Z = 0.12
M105
M105
T0
; tool H0.12 W0.65
G1 X52.025 Y-82.56 F18000
G1 Z0.12 F18000
G1 E0 F720
G92 E0
G1 X52.025 Y82.56 E5.3546 F3600
G1 X51.778 Y83.157 E5.3756
G1 X48.157 Y86.778 E5.5416
G1 X47.56 Y87.025 E5.5626
G1 X-47.56 Y87.025 E8.6472
G1 X-48.157 Y86.778 E8.6682
G1 X-51.778 Y83.157 E8.8342
G1 X-52.025 Y82.56 E8.8551
G1 X-52.025 Y-82.56 E14.2098
G1 X-51.778 Y-83.157 E14.2307
G1 X-48.157 Y-86.778 E14.3968
G1 X-47.56 Y-87.025 E14.4177
G1 X47.56 Y-87.025 E17.5023
G1 X48.157 Y-86.778 E17.5233
G1 X51.528 Y-83.407 E17.6779
G1 X51.778 Y-83.157 F3600
G1 X52.025 Y-82.56 F3600
G1 X51.375 Y-82.431 F18000
G92 E0
G1 X51.375 Y82.431 E5.3462 F3600
G1 X51.227 Y82.789 E5.3588
G1 X47.789 Y86.227 E5.5165
G1 X47.431 Y86.375 E5.529
G1 X-47.431 Y86.375 E8.6053
G1 X-47.789 Y86.227 E8.6178
G1 X-51.227 Y82.789 E8.7755
G1 X-51.375 Y82.431 E8.7881
G1 X-51.375 Y-82.431 E14.1343
G1 X-51.227 Y-82.789 E14.1469
G1 X-47.789 Y-86.227 E14.3045
G1 X-47.431 Y-86.375 E14.3171
G1 X47.431 Y-86.375 E17.3933
G1 X47.789 Y-86.227 E17.4059
G1 X50.794 Y-83.222 E17.5437
G1 X51.227 Y-82.789 F3600
G1 X51.375 Y-82.431 F3600
G1 X50.725 Y-82.301 F18000
G92 E0
G1 X50.725 Y82.301 E5.3378 F3600
G1 X50.676 Y82.421 E5.342
G1 X47.421 Y85.676 E5.4913
G1 X47.301 Y85.725 E5.4955
G1 X-47.301 Y85.725 E8.5633
G1 X-47.421 Y85.676 E8.5675
G1 X-50.676 Y82.421 E8.7168
G1 X-50.725 Y82.301 E8.721
G1 X-50.725 Y-82.301 E14.0588
G1 X-50.676 Y-82.421 E14.063
G1 X-47.421 Y-85.676 E14.2123
G1 X-47.301 Y-85.725 E14.2165
G1 X47.301 Y-85.725 E17.2843
G1 X47.421 Y-85.676 E17.2885
G1 X50.06 Y-83.036 E17.4095
G1 X50.676 Y-82.421 F3600
G1 X50.725 Y-82.301 F3600
G92 E0
G1 E-4.5 F2400
G1 Z0.22 F18000
G1 X44.675 Y-79.675 F18000
G1 Z0.12 F18000
G1 E0 F2400
G92 E0
G1 X44.675 Y79.675 E5.1675 F540
G1 X-44.675 Y79.675 E8.065
G1 X-44.675 Y-79.675 E13.2325
G1 X43.675 Y-79.675 E16.0976
G1 X44.675 Y-79.675 F540
G1 X44.675 Y-75.675 F540
G1 X44.025 Y-79.025 F18000
G92 E0
G1 X44.025 Y79.025 E5.1253 F1050
G1 X-44.025 Y79.025 E7.9807
G1 X-44.025 Y-79.025 E13.106
G1 X43.025 Y-79.025 E15.9289
G1 X44.025 Y-79.025 F1050
G1 X43.375 Y-78.375 F18000
G92 E0
G1 X43.375 Y78.375 E5.0832 F1560
G1 X-43.375 Y78.375 E7.8964
G1 X-43.375 Y-78.375 E12.9796
G1 X42.375 Y-78.375 E15.7603
G1 X43.375 Y-78.375 F1560
G1 X42.725 Y-77.725 F18000
G92 E0
G1 X42.725 Y77.725 E5.041 F2070
G1 X-42.725 Y77.725 E7.8121
G1 X-42.725 Y-77.725 E12.8531
G1 X41.725 Y-77.725 E15.5917
G1 X42.725 Y-77.725 F2070
G1 X42.075 Y-77.075 F18000
G92 E0
G1 X42.075 Y77.075 E4.9989 F2580
G1 X35.595 Y77.075 E5.209
G1 X38.079 Y75.641 E5.302
G1 X39.934 Y73.087 E5.4044
G1 X40.59 Y70 E5.5067
G1 X39.934 Y66.913 E5.6091
G1 X38.079 Y64.359 E5.7115
G1 X35.345 Y62.781 E5.8138
G1 X32.207 Y62.451 E5.9162
G1 X29.205 Y63.426 E6.0185
G1 X26.859 Y65.538 E6.1209
G1 X25.575 Y68.422 E6.2233
G1 X25.575 Y71.578 E6.3256
G1 X26.859 Y74.461 E6.4279
G1 X29.205 Y76.574 E6.5303
G1 X29.397 Y76.636 E6.5369
G1 X29.328 Y77.075 E6.5513
G1 X2.595 Y77.075 E7.4182
G1 X5.079 Y75.641 E7.5112
G1 X6.934 Y73.087 E7.6136
G1 X7.59 Y70 E7.7159
G1 X6.934 Y66.913 E7.8183
G1 X5.079 Y64.359 E7.9206
G1 X2.345 Y62.781 E8.023
G1 X-0.793 Y62.451 E8.1253
G1 X-3.795 Y63.426 E8.2277
G1 X-6.141 Y65.538 E8.3301
G1 X-7.425 Y68.422 E8.4324
G1 X-7.425 Y71.578 E8.5347
G1 X-6.141 Y74.461 E8.6371
G1 X-3.795 Y76.574 E8.7395
G1 X-3.603 Y76.636 E8.746
G1 X-3.672 Y77.075 E8.7605
G1 X-30.405 Y77.075 E9.6274
G1 X-27.921 Y75.641 E9.7204
G1 X-26.066 Y73.087 E9.8228
G1 X-25.41 Y70 E9.9251
G1 X-26.066 Y66.913 E10.0274
G1 X-27.921 Y64.359 E10.1298
G1 X-30.655 Y62.781 E10.2322
G1 X-33.793 Y62.451 E10.3345
G1 X-36.795 Y63.426 E10.4369
G1 X-39.141 Y65.538 E10.5392
G1 X-40.425 Y68.422 E10.6416
G1 X-40.425 Y71.578 E10.7439
G1 X-39.141 Y74.462 E10.8463
G1 X-36.795 Y76.574 E10.9487
G1 X-36.603 Y76.636 E10.9552
G1 X-36.672 Y77.075 E10.9696
G1 X-42.075 Y77.075 E11.1448
G1 X-42.075 Y-77.075 E16.1437
G1 X-36.671 Y-77.075 E16.3189
G1 X-36.602 Y-76.636 E16.3333
G1 X-36.795 Y-76.574 E16.3399
G1 X-39.141 Y-74.462 E16.4423
G1 X-40.425 Y-71.578 E16.5446
G1 X-40.425 Y-68.422 E16.647
G1 X-39.141 Y-65.538 E16.7494
G1 X-36.795 Y-63.426 E16.8517
G1 X-33.793 Y-62.451 E16.9541
G1 X-30.654 Y-62.781 E17.0564
G1 X-27.921 Y-64.359 E17.1588
G1 X-26.066 Y-66.913 E17.2611
G1 X-25.41 Y-70 E17.3635
G1 X-26.066 Y-73.087 E17.4658
G1 X-27.921 Y-75.641 E17.5682
G1 X-30.405 Y-77.075 E17.6612
G1 X-3.671 Y-77.075 E18.5281
G1 X-3.602 Y-76.636 E18.5425
G1 X-3.795 Y-76.574 E18.5491
G1 X-6.141 Y-74.462 E18.6515
G1 X-7.425 Y-71.578 E18.7538
G1 X-7.425 Y-68.422 E18.8562
G1 X-6.141 Y-65.538 E18.9586
G1 X-3.795 Y-63.426 E19.0609
G1 X-0.793 Y-62.451 E19.1633
G1 X2.346 Y-62.781 E19.2656
G1 X5.079 Y-64.359 E19.368
G1 X6.934 Y-66.913 E19.4703
G1 X7.59 Y-70 E19.5727
G1 X6.934 Y-73.087 E19.675
G1 X5.079 Y-75.641 E19.7774
G1 X2.595 Y-77.075 E19.8704
G1 X29.329 Y-77.075 E20.7373
G1 X29.398 Y-76.636 E20.7517
G1 X29.205 Y-76.574 E20.7583
G1 X26.859 Y-74.462 E20.8607
G1 X25.575 Y-71.578 E20.963
G1 X25.575 Y-68.422 E21.0654
G1 X26.859 Y-65.538 E21.1678
G1 X29.205 Y-63.426 E21.2701
G1 X32.207 Y-62.451 E21.3725
G1 X35.346 Y-62.781 E21.4748
G1 X38.079 Y-64.359 E21.5772
G1 X39.934 Y-66.913 E21.6795
G1 X40.59 Y-70 E21.7819
G1 X39.934 Y-73.087 E21.8842
G1 X38.079 Y-75.641 E21.9866
G1 X35.595 Y-77.075 E22.0796
G1 X41.075 Y-77.075 E22.2573
G1 X42.075 Y-77.075 F2580
G1 X41.425 Y-68.56 F18000
G92 E0
G1 X41.425 Y-31.44 E1.2038 F3090
G1 X40.959 Y-31.391 E1.219
G1 X40.541 Y-33.358 E1.2842
G1 X38.524 Y-36.135 E1.3955
G1 X35.551 Y-37.851 E1.5068
G1 X32.137 Y-38.21 E1.6181
G1 X28.872 Y-37.149 E1.7294
G1 X26.322 Y-34.852 E1.8407
G1 X24.925 Y-31.716 E1.9521
G1 X24.925 Y-28.284 E2.0634
G1 X26.322 Y-25.148 E2.1747
G1 X28.872 Y-22.851 E2.286
G1 X32.137 Y-21.79 E2.3973
G1 X35.551 Y-22.149 E2.5086
G1 X38.524 Y-23.865 E2.62
G1 X40.541 Y-26.642 E2.7313
G1 X40.959 Y-28.609 E2.7965
G1 X41.425 Y-28.56 E2.8117
G1 X41.425 Y68.56 E5.9611
G1 X40.959 Y68.609 E5.9763
G1 X40.541 Y66.643 E6.0415
G1 X38.524 Y63.865 E6.1529
G1 X35.551 Y62.149 E6.2642
G1 X32.137 Y61.79 E6.3755
G1 X28.872 Y62.851 E6.4868
G1 X26.321 Y65.148 E6.5981
G1 X24.925 Y68.284 E6.7095
G1 X24.925 Y71.716 E6.8207
G1 X26.321 Y74.852 E6.9321
G1 X28.068 Y76.425 E7.0083
G1 X5.313 Y76.425 E7.7462
G1 X7.541 Y73.357 E7.8691
G1 X8.255 Y70 E7.9805
G1 X7.541 Y66.643 E8.0918
G1 X5.524 Y63.865 E8.2031
G1 X2.551 Y62.149 E8.3144
G1 X-0.863 Y61.79 E8.4257
G1 X-4.127 Y62.851 E8.537
G1 X-6.679 Y65.148 E8.6484
G1 X-8.075 Y68.284 E8.7597
G1 X-8.075 Y71.716 E8.871
G1 X-6.679 Y74.852 E8.9823
G1 X-4.932 Y76.425 E9.0585
G1 X-27.687 Y76.425 E9.7964
G1 X-25.459 Y73.357 E9.9194
G1 X-24.745 Y70 E10.0307
G1 X-25.459 Y66.643 E10.142
G1 X-27.476 Y63.865 E10.2533
G1 X-30.449 Y62.149 E10.3646
G1 X-33.863 Y61.79 E10.4759
G1 X-37.127 Y62.851 E10.5873
G1 X-39.679 Y65.148 E10.6986
G1 X-41.013 Y68.146 E10.805
G1 X-41.425 Y68.059 E10.8187
G1 X-41.425 Y-28.058 E13.9356
G1 X-41.013 Y-28.146 E13.9493
G1 X-39.678 Y-25.148 E14.0557
G1 X-37.127 Y-22.851 E14.167
G1 X-33.863 Y-21.79 E14.2783
G1 X-30.449 Y-22.149 E14.3896
G1 X-27.476 Y-23.865 E14.5009
G1 X-25.459 Y-26.642 E14.6122
G1 X-24.745 Y-30 E14.7236
G1 X-25.459 Y-33.358 E14.8349
G1 X-27.476 Y-36.135 E14.9462
G1 X-30.449 Y-37.851 E15.0575
G1 X-33.863 Y-38.21 E15.1688
G1 X-37.127 Y-37.149 E15.2801
G1 X-39.678 Y-34.852 E15.3914
G1 X-41.013 Y-31.854 E15.4979
G1 X-41.425 Y-31.942 E15.5115
G1 X-41.425 Y-68.058 E16.6827
G1 X-41.013 Y-68.146 E16.6964
G1 X-39.678 Y-65.148 E16.8028
G1 X-37.127 Y-62.851 E16.9141
G1 X-33.863 Y-61.79 E17.0254
G1 X-30.449 Y-62.149 E17.1367
G1 X-27.476 Y-63.865 E17.2481
G1 X-25.459 Y-66.642 E17.3594
G1 X-24.745 Y-70 E17.4707
G1 X-25.459 Y-73.358 E17.582
G1 X-27.687 Y-76.425 E17.7049
G1 X-4.932 Y-76.425 E18.4429
G1 X-6.678 Y-74.852 E18.5191
G1 X-8.075 Y-71.716 E18.6304
G1 X-8.075 Y-68.284 E18.7417
G1 X-6.678 Y-65.148 E18.8531
G1 X-4.128 Y-62.851 E18.9644
G1 X-0.863 Y-61.79 E19.0757
G1 X2.551 Y-62.149 E19.187
G1 X5.524 Y-63.865 E19.2983
G1 X7.541 Y-66.642 E19.4096
G1 X8.255 Y-70 E19.5209
G1 X7.541 Y-73.358 E19.6323
G1 X5.313 Y-76.425 E19.7552
G1 X28.068 Y-76.425 E20.4931
G1 X26.322 Y-74.852 E20.5694
G1 X24.925 Y-71.716 E20.6807
G1 X24.925 Y-68.284 E20.792
G1 X26.322 Y-65.148 E20.9033
G1 X28.872 Y-62.851 E21.0146
G1 X32.137 Y-61.79 E21.1259
G1 X35.551 Y-62.149 E21.2373
G1 X38.524 Y-63.865 E21.3486
G1 X40.541 Y-66.642 E21.4599
G1 X40.849 Y-68.089 E21.5079
G1 X40.959 Y-68.609 F3090
G1 X41.425 Y-68.56 F3090
G92 E0
G1 E-4.5 F2400
G1 Z0.22 F18000
G1 X1.524 Y65.309 F18000
G1 Z0.12 F18000
G1 E0 F2400
G92 E0
G1 X-0.516 Y65.095 E0.0665 F540
G1 X-2.466 Y65.728 E0.133
G1 X-3.99 Y67.101 E0.1995
G1 X-4.825 Y68.975 E0.2661
G1 X-4.825 Y71.025 E0.3325
G1 X-3.99 Y72.899 E0.3991
G1 X-2.466 Y74.272 E0.4656
G1 X-0.516 Y74.905 E0.5321
G1 X1.524 Y74.691 E0.5986
G1 X3.3 Y73.666 E0.6651
G1 X4.506 Y72.006 E0.7316
G1 X4.932 Y70 E0.7981
G1 X4.506 Y67.994 E0.8647
G1 X3.3 Y66.334 E0.9312
G1 X2.39 Y65.809 E0.9653
G1 X1.524 Y65.309 F540
G1 X-0.516 Y65.095 F540
G1 X-2.369 Y65.697 F540
G1 X1.729 Y64.677 F18000
G92 E0
G1 X-0.585 Y64.434 E0.0755 F1050
G1 X-2.798 Y65.153 E0.1509
G1 X-4.528 Y66.71 E0.2264
G1 X-5.475 Y68.837 E0.3019
G1 X-5.475 Y71.163 E0.3773
G1 X-4.528 Y73.29 E0.4528
G1 X-2.798 Y74.847 E0.5283
G1 X-0.585 Y75.566 E0.6038
G1 X1.729 Y75.323 E0.6792
G1 X3.745 Y74.16 E0.7547
G1 X5.113 Y72.276 E0.8302
G1 X5.597 Y70 E0.9057
G1 X5.113 Y67.724 E0.9811
G1 X3.745 Y65.84 E1.0566
G1 X2.596 Y65.177 E1.0997
G1 X1.729 Y64.677 F1050
G1 X1.935 Y64.045 F18000
G92 E0
G1 X-0.654 Y63.773 E0.0844 F1560
G1 X-3.131 Y64.577 E0.1689
G1 X-5.066 Y66.32 E0.2533
G1 X-6.125 Y68.699 E0.3377
G1 X-6.125 Y71.301 E0.4221
G1 X-5.066 Y73.68 E0.5066
G1 X-3.131 Y75.423 E0.591
G1 X-0.654 Y76.227 E0.6755
G1 X1.935 Y75.955 E0.7599
G1 X4.19 Y74.654 E0.8443
G1 X5.72 Y72.547 E0.9288
G1 X6.261 Y70 E1.0132
G1 X5.72 Y67.453 E1.0976
G1 X4.19 Y65.346 E1.1821
G1 X2.801 Y64.545 E1.2341
G1 X1.935 Y64.045 F1560
G1 X2.14 Y63.413 F18000
G92 E0
G1 X-0.724 Y63.112 E0.0934 F2070
G1 X-3.463 Y64.002 E0.1868
G1 X-5.603 Y65.929 E0.2802
G1 X-6.775 Y68.561 E0.3736
G1 X-6.775 Y71.439 E0.4669
G1 X-5.603 Y74.071 E0.5604
G1 X-3.463 Y75.998 E0.6538
G1 X-0.724 Y76.888 E0.7472
G1 X2.14 Y76.587 E0.8405
G1 X4.634 Y75.148 E0.9339
G1 X6.327 Y72.817 E1.0273
G1 X6.926 Y70 E1.1207
G1 X6.327 Y67.183 E1.2141
G1 X4.634 Y64.852 E1.3075
G1 X3.006 Y63.913 E1.3685
G1 X2.14 Y63.413 F2070
G1 X-31.476 Y65.309 F18000
G92 E0
G1 X-33.516 Y65.095 E0.0665 F540
G1 X-35.466 Y65.728 E0.133
G1 X-36.99 Y67.101 E0.1995
G1 X-37.825 Y68.975 E0.2661
G1 X-37.825 Y71.025 E0.3325
G1 X-36.99 Y72.899 E0.3991
G1 X-35.466 Y74.272 E0.4656
G1 X-33.516 Y74.905 E0.5321
G1 X-31.476 Y74.691 E0.5986
G1 X-29.7 Y73.666 E0.6651
G1 X-28.494 Y72.006 E0.7316
G1 X-28.068 Y70 E0.7981
G1 X-28.494 Y67.994 E0.8646
G1 X-29.7 Y66.334 E0.9312
G1 X-30.61 Y65.809 E0.9653
G1 X-31.476 Y65.309 F540
G1 X-33.516 Y65.095 F540
G1 X-35.369 Y65.697 F540
G1 X-31.271 Y64.677 F18000
G92 E0
G1 X-33.585 Y64.434 E0.0755 F1050
G1 X-35.798 Y65.153 E0.1509
G1 X-37.528 Y66.71 E0.2264
G1 X-38.475 Y68.837 E0.3019
G1 X-38.475 Y71.163 E0.3773
G1 X-37.528 Y73.29 E0.4528
G1 X-35.798 Y74.847 E0.5283
G1 X-33.585 Y75.566 E0.6038
G1 X-31.271 Y75.323 E0.6792
G1 X-29.255 Y74.16 E0.7547
G1 X-27.887 Y72.276 E0.8302
G1 X-27.403 Y70 E0.9057
G1 X-27.887 Y67.724 E0.9811
G1 X-29.255 Y65.84 E1.0566
G1 X-30.404 Y65.177 E1.0997
G1 X-31.271 Y64.677 F1050
G1 X-31.065 Y64.045 F18000
G92 E0
G1 X-33.654 Y63.773 E0.0844 F1560
G1 X-36.131 Y64.577 E0.1689
G1 X-38.066 Y66.32 E0.2533
G1 X-39.125 Y68.699 E0.3377
G1 X-39.125 Y71.301 E0.4221
G1 X-38.066 Y73.68 E0.5066
G1 X-36.131 Y75.423 E0.591
G1 X-33.654 Y76.227 E0.6755
G1 X-31.065 Y75.955 E0.7599
G1 X-28.81 Y74.654 E0.8443
G1 X-27.28 Y72.547 E0.9288
G1 X-26.739 Y70 E1.0132
G1 X-27.28 Y67.453 E1.0976
