; G-Code generated by Simplify3D(TM) Version 2.2.0
; Jan 9, 2015 at 4:00:13 PM
; Settings Summary
;   processName,PetBasic
;   applyToModels,cube10mm
;   profileLabel,PetBasic.fff
;   printMaterial,PLA
;   printQuality,Medium
;   extruderName,Extruder 1
;   extruderToolheadNumber,0
;   extruderDiameter,0.8
;   extruderAutoWidth,0
;   extruderWidth,0.8
;   extrusionMultiplier,1.1
;   extruderUseRetract,1
;   extruderRetractionDistance,1
;   extruderExtraRestartDistance,0
;   extruderRetractionZLift,0
;   extruderRetractionSpeed,1800
;   extruderUseCoasting,1
;   extruderCoastingDistance,0.2
;   extruderUseWipe,1
;   extruderWipeDistance,5
;   primaryExtruder,0
;   layerHeight,0.2
;   topSolidLayers,3
;   bottomSolidLayers,3
;   perimeterOutlines,2
;   printPerimetersInsideOut,0
;   startPointOption,2
;   startPointOriginX,0
;   startPointOriginY,0
;   startPointOriginZ,300
;   sequentialIslands,0
;   spiralVaseMode,0
;   firstLayerHeightPercentage,130
;   firstLayerWidthPercentage,100
;   firstLayerUnderspeed,0.5
;   useRaft,0
;   raftExtruder,0
;   raftLayers,3
;   raftOffset,3
;   raftSeparationDistance,0.14
;   raftInfill,85
;   disableRaftBaseLayers,0
;   useSkirt,1
;   skirtExtruder,0
;   skirtLayers,1
;   skirtOutlines,3
;   skirtOffset,4
;   infillExtruder,0
;   externalInfillPattern,Rectilinear
;   infillPercentage,50
;   outlineOverlapPercentage,15
;   infillExtrusionWidthPercentage,100
;   minInfillLength,5
;   infillLayerInterval,1
;   randomInfillStartPoint,0
;   infillAngles,45,-45
;   generateSupport,0
;   supportExtruder,0
;   supportInfill,30
;   supportExtraInflation,0
;   denseSupportLayers,0
;   denseSupportInfill,70
;   supportLayerInterval,1
;   supportHorizontalPartOffset,0.3
;   supportUpperSeparationLayers,1
;   supportLowerSeparationLayers,1
;   supportGridSpacing,4
;   maxOverhangAngle,45
;   supportAngles,0
;   temperatureName,Extruder 1 Temperature,Heated Bed
;   temperatureNumber,0,0
;   temperatureSetpointCount,1,1
;   temperatureSetpointLayers,1,1
;   temperatureSetpointTemperatures,230,60
;   temperatureStabilizeAtStartup,1,0
;   temperatureHeatedBed,0,1
;   temperatureRelayBetweenLayers,0,0
;   temperatureRelayBetweenLoops,0,0
;   fanLayers,1,2
;   fanSpeeds,0,100
;   blipFanToFullPower,0
;   adjustSpeedForCooling,1
;   minSpeedLayerTime,15
;   minCoolingSpeedSlowdown,20
;   increaseFanForCooling,0
;   minFanLayerTime,45
;   maxCoolingFanSpeed,100
;   increaseFanForBridging,0
;   bridgingFanSpeed,100
;   use5D,1
;   relativeEdistances,0
;   allowEaxisZeroing,1
;   independentExtruderAxes,0
;   includeM10123,0
;   stickySupport,1
;   detectArcs,0
;   arcReplaceG2G3,0
;   arcRadialCompensation,1
;   gcodeXoffset,0
;   gcodeYoffset,0
;   gcodeZoffset,0
;   overrideMachineDefinition,0
;   machineTypeOverride,1
;   strokeXoverride,240
;   strokeYoverride,240
;   strokeZoverride,210
;   originOffsetXoverride,0
;   originOffsetYoverride,0
;   originOffsetZoverride,0
;   homeXdirOverride,0
;   homeYdirOverride,0
;   homeZdirOverride,1
;   flipXoverride,1
;   flipYoverride,-1
;   flipZoverride,1
;   startingGcode,G28 ; home all axes
;   layerChangeGcode,
;   toolChangeGcode,
;   endingGcode,
;   createX3G,0
;   celebration,0
;   celebrationSong,Random Song
;   createMB5G,0
;   postProcessing,
;   defaultSpeed,3000
;   outlineUnderspeed,0.5
;   solidInfillUnderspeed,1
;   supportUnderspeed,1
;   rapidXYspeed,3000
;   rapidZspeed,3000
;   minBridgingArea,50
;   bridgingExtrusionMultiplier,1
;   bridgingSpeedMultiplier,1
;   filamentDiameter,1.75
;   filamentPricePerKg,46
;   useMinPrintHeight,0
;   minPrintHeight,0
;   useMaxPrintHeight,0
;   maxPrintHeight,0
;   useDiaphragm,0
;   diaphragmLayerInterval,20
;   robustSlicing,1
;   mergeAllIntoSolid,0
;   onlyRetractWhenCrossingOutline,1
;   retractBetweenLayers,1
;   useRetractionMinTravel,0
;   retractionMinTravel,3
;   useRetractionOozeRate,0
;   retractionOozeRate,6000
;   onlyWipeOutlines,1
;   toolChangeRetractionDistance,12
;   toolChangeExtraRestartDistance,-0.5
;   toolChangeRetractionSpeed,600
;   allowThinWallGapFill,1
;   thinWallAllowedOverlapPercentage,10
G90
M82
M106 S0
M140 S60
M104 S230 T0
M109 S230 T0
G28 ; home all axes
G92 E0
G1 E-1 F1800
; layer 1, Z = 0.26
T0
; tool H0.26 W0.8
G1 X11 Y-7.055 F3000
G1 Z0.26 F3000
G1 E0 F540
G92 E0
G1 X11 Y7.055 E1.3421 F703
G1 X10.696 Y7.79 E1.4178
G1 X7.79 Y10.696 E1.8087
G1 X7.055 Y11 E1.8844
G1 X-7.055 Y11 E3.2265
G1 X-7.79 Y10.696 E3.3022
G1 X-10.696 Y7.79 E3.6931
G1 X-11 Y7.055 E3.7688
G1 X-11 Y-7.055 E5.111
G1 X-10.696 Y-7.79 E5.1866
G1 X-7.79 Y-10.696 E5.5775
G1 X-7.055 Y-11 E5.6532
G1 X7.055 Y-11 E6.9954
G1 X7.79 Y-10.696 E7.071
G1 X10.696 Y-7.79 E7.4619
G1 X10.923 Y-7.239 E7.5186
G1 X11 Y-7.055 F703
G1 X10.2 Y-6.896 F3000
G92 E0
G1 X10.2 Y6.896 E1.3119 F703
G1 X10.017 Y7.337 E1.3573
G1 X7.337 Y10.017 E1.7179
G1 X6.896 Y10.2 E1.7633
G1 X-6.896 Y10.2 E3.0752
G1 X-7.337 Y10.017 E3.1206
G1 X-10.017 Y7.337 E3.4812
G1 X-10.2 Y6.896 E3.5266
G1 X-10.2 Y-6.896 E4.8385
G1 X-10.017 Y-7.337 E4.8839
G1 X-7.337 Y-10.017 E5.2445
G1 X-6.896 Y-10.2 E5.2899
G1 X6.896 Y-10.2 E6.6018
G1 X7.337 Y-10.017 E6.6472
G1 X10.017 Y-7.337 E7.0078
G1 X10.123 Y-7.08 E7.0342
G1 X10.2 Y-6.896 F703
G1 X9.4 Y-6.736 F3000
G92 E0
G1 X9.4 Y6.736 E1.2816 F703
G1 X9.339 Y6.883 E1.2967
G1 X6.883 Y9.339 E1.6271
G1 X6.736 Y9.4 E1.6422
G1 X-6.736 Y9.4 E2.9238
G1 X-6.883 Y9.339 E2.9389
G1 X-9.339 Y6.883 E3.2693
G1 X-9.4 Y6.736 E3.2844
G1 X-9.4 Y-6.736 E4.566
G1 X-9.339 Y-6.883 E4.5812
G1 X-6.883 Y-9.339 E4.9115
G1 X-6.736 Y-9.4 E4.9266
G1 X6.736 Y-9.4 E6.2082
G1 X6.883 Y-9.339 E6.2234
G1 X9.31 Y-6.912 E6.5498
G1 X9.339 Y-6.883 F703
G1 X9.4 Y-6.736 F703
G92 E0
G1 E-1 F1800
G1 X4.6 Y-4.6 F3000
G1 E0 F1800
G92 E0
G1 X4.6 Y4.6 E0.8751 F351
G1 X-4.6 Y4.6 E1.7503
G1 X-4.6 Y-4.6 E2.6254
G1 X4.4 Y-4.6 E3.4815
G1 X4.6 Y-4.6 F351
G1 X4.6 Y0.4 F351
G1 X3.8 Y-3.8 F3000
G92 E0
G1 X3.8 Y3.8 E0.7229 F527
G1 X-3.8 Y3.8 E1.4459
G1 X-3.8 Y-3.8 E2.1688
G1 X3.6 Y-3.8 E2.8727
G1 X3.8 Y-3.8 F527
G1 X-3.12 Y-2.556 F3000
G92 E0
G1 X-2.556 Y-3.12 E0.0759 F703
G1 X-1.424 Y-3.12 E0.1836
G1 X-3.12 Y-1.424 E0.4117
G1 X-3.12 Y-0.293 E0.5193
G1 X-0.293 Y-3.12 E0.8996
G1 X0.839 Y-3.12 E1.0073
G1 X-3.12 Y0.839 E1.5398
G1 X-3.12 Y1.97 E1.6474
G1 X1.97 Y-3.12 E2.3321
G1 X3.101 Y-3.12 E2.4398
G1 X-3.12 Y3.101 E3.2767
G1 X-3.12 Y3.12 E3.2785
G1 X-2.007 Y3.12 E3.3843
G1 X3.12 Y-2.007 E4.0741
G1 X3.12 Y-0.876 E4.1817
G1 X-0.876 Y3.12 E4.7192
G1 X0.255 Y3.12 E4.8269
G1 X3.12 Y0.255 E5.2122
G1 X3.12 Y1.387 E5.3198
G1 X1.387 Y3.12 E5.553
G1 X2.518 Y3.12 E5.6606
G1 X3.12 Y2.518 E5.7416
G1 X3.12 Y3.12 E5.7988
G1 X2.718 Y3.12 E5.8371
G1 X2.518 Y3.12 F703
G92 E0
G1 E-1 F1800
; layer 2, Z = 0.46
M106 S255
; tool H0.2 W0.8
G1 X4.6 Y4.6 F3000
G1 Z0.46 F3000
G1 E0 F1800
G92 E0
G1 X-4.6 Y4.6 E0.6732 F351
G1 X-4.6 Y-4.6 E1.3464
G1 X4.6 Y-4.6 E2.0196
G1 X4.6 Y4.4 E2.6781
G1 X4.6 Y4.6 F351
G1 X-0.4 Y4.6 F351
G1 X3.8 Y3.8 F3000
G92 E0
G1 X-3.8 Y3.8 E0.5561 F527
G1 X-3.8 Y-3.8 E1.1122
G1 X3.8 Y-3.8 E1.6683
G1 X3.8 Y3.6 E2.2098
G1 X3.8 Y3.8 F527
G1 X2.556 Y-3.12 F3000
G92 E0
G1 X3.12 Y-2.556 E0.0584 F703
G1 X3.12 Y-1.424 E0.1412
G1 X1.424 Y-3.12 E0.3167
G1 X0.293 Y-3.12 E0.3995
G1 X3.12 Y-0.293 E0.692
G1 X3.12 Y0.839 E0.7748
G1 X-0.839 Y-3.12 E1.1845
G1 X-1.97 Y-3.12 E1.2672
G1 X3.12 Y1.97 E1.794
G1 X3.12 Y3.101 E1.8767
G1 X-3.101 Y-3.12 E2.5205
G1 X-3.12 Y-3.12 E2.5219
G1 X-3.12 Y-2.007 E2.6033
G1 X2.007 Y3.12 E3.1339
G1 X0.876 Y3.12 E3.2167
G1 X-3.12 Y-0.876 E3.6302
G1 X-3.12 Y0.255 E3.713
G1 X-0.255 Y3.12 E4.0094
G1 X-1.387 Y3.12 E4.0922
G1 X-3.12 Y1.387 E4.2715
G1 X-3.12 Y2.518 E4.3543
G1 X-2.518 Y3.12 E4.4166
G1 X-3.12 Y3.12 E4.4606
G1 X-3.12 Y2.718 E4.49
G1 X-3.12 Y2.518 F703
G92 E0
G1 E-1 F1800
; layer 3, Z = 0.66
G1 X-4.6 Y4.6 F3000
G1 Z0.66 F3000
G1 E0 F1800
G92 E0
G1 X-4.6 Y-4.6 E0.6732 F351
G1 X4.6 Y-4.6 E1.3464
G1 X4.6 Y4.6 E2.0196
G1 X-4.4 Y4.6 E2.6781
G1 X-4.6 Y4.6 F351
G1 X-4.6 Y-0.4 F351
G1 X-3.8 Y3.8 F3000
G92 E0
G1 X-3.8 Y-3.8 E0.5561 F527
G1 X3.8 Y-3.8 E1.1122
G1 X3.8 Y3.8 E1.6683
G1 X-3.6 Y3.8 E2.2098
G1 X-3.8 Y3.8 F527
G1 X2.518 Y3.12 F3000
G92 E0
G1 X3.12 Y3.12 E0.044 F703
G1 X3.12 Y2.518 E0.0881
G1 X2.518 Y3.12 E0.1503
G1 X1.387 Y3.12 E0.2331
G1 X3.12 Y1.387 E0.4125
G1 X3.12 Y0.255 E0.4953
G1 X0.255 Y3.12 E0.7917
G1 X-0.876 Y3.12 E0.8745
G1 X3.12 Y-0.876 E1.288
G1 X3.12 Y-2.007 E1.3708
G1 X-2.007 Y3.12 E1.9014
G1 X-3.12 Y3.12 E1.9828
G1 X-3.12 Y3.101 E1.9841
G1 X3.101 Y-3.12 E2.6279
G1 X1.97 Y-3.12 E2.7107
G1 X-3.12 Y1.97 E3.2374
G1 X-3.12 Y0.839 E3.3202
G1 X0.839 Y-3.12 E3.7299
G1 X-0.293 Y-3.12 E3.8126
G1 X-3.12 Y-0.293 E4.1052
G1 X-3.12 Y-1.424 E4.188
G1 X-1.424 Y-3.12 E4.3635
G1 X-2.556 Y-3.12 E4.4463
G1 X-2.979 Y-2.697 E4.49
G1 X-3.12 Y-2.556 F703
G92 E0
G1 E-1 F1800
; layer 4, Z = 0.86
G1 X-4.6 Y-4.6 F3000
G1 Z0.86 F3000
G1 E0 F1800
G92 E0
G1 X4.6 Y-4.6 E0.6732 F300
G1 X4.6 Y4.6 E1.3464
G1 X-4.6 Y4.6 E2.0196
G1 X-4.6 Y-4.4 E2.6781
G1 X-4.6 Y-4.6 F300
G1 X0.4 Y-4.6 F300
G1 X-3.8 Y-3.8 F3000
G92 E0
G1 X3.8 Y-3.8 E0.5561 F450
G1 X3.8 Y3.8 E1.1122
G1 X-3.8 Y3.8 E1.6683
G1 X-3.8 Y-3.6 E2.2098
G1 X-3.8 Y-3.8 F450
G1 X0.858 Y-3.12 F3000
G92 E0
G1 X3.12 Y-0.858 E0.234 F600
G1 X3.12 Y1.404 E0.3996
G1 X-1.404 Y-3.12 E0.8678
G1 X-3.12 Y-3.12 E0.9933
G1 X-3.12 Y-2.573 E1.0333
G1 X2.573 Y3.12 E1.6225
G1 X0.31 Y3.12 E1.788
G1 X-3.12 Y-0.31 E2.143
G1 X-3.12 Y1.952 E2.3086
G1 X-1.952 Y3.12 E2.4294
G1 X-3.12 Y3.12 E2.5148
G1 X-3.12 Y2.152 E2.5856
G1 X-3.12 Y1.952 F600
G92 E0
G1 E-1 F1800
; layer 5, Z = 1.06
G1 X-4.6 Y4.6 F3000
G1 Z1.06 F3000
G1 E0 F1800
G92 E0
G1 X-4.6 Y-4.6 E0.6732 F300
G1 X4.6 Y-4.6 E1.3464
G1 X4.6 Y4.6 E2.0196
G1 X-4.4 Y4.6 E2.6781
G1 X-4.6 Y4.6 F300
G1 X-4.6 Y-0.4 F300
G1 X-3.8 Y3.8 F3000
G92 E0
G1 X-3.8 Y-3.8 E0.5561 F450
G1 X3.8 Y-3.8 E1.1122
G1 X3.8 Y3.8 E1.6683
G1 X-3.6 Y3.8 E2.2098
G1 X-3.8 Y3.8 F450
G1 X-3.12 Y-0.858 F3000
G92 E0
G1 X-0.858 Y-3.12 E0.234 F600
G1 X1.404 Y-3.12 E0.3996
G1 X-3.12 Y1.404 E0.8678
G1 X-3.12 Y3.12 E0.9933
G1 X-2.573 Y3.12 E1.0333
G1 X3.12 Y-2.573 E1.6225
G1 X3.12 Y-0.31 E1.788
G1 X-0.31 Y3.12 E2.143
G1 X1.952 Y3.12 E2.3086
G1 X3.12 Y1.952 E2.4294
G1 X3.12 Y3.12 E2.5148
G1 X2.152 Y3.12 E2.5856
G1 X1.952 Y3.12 F600
G92 E0
G1 E-1 F1800
; layer 6, Z = 1.26
G1 X4.6 Y4.6 F3000
G1 Z1.26 F3000
G1 E0 F1800
G92 E0
G1 X-4.6 Y4.6 E0.6732 F300
G1 X-4.6 Y-4.6 E1.3464
G1 X4.6 Y-4.6 E2.0196
G1 X4.6 Y4.4 E2.6781
G1 X4.6 Y4.6 F300
G1 X-0.4 Y4.6 F300
G1 X3.8 Y3.8 F3000
G92 E0
G1 X-3.8 Y3.8 E0.5561 F450
G1 X-3.8 Y-3.8 E1.1122
G1 X3.8 Y-3.8 E1.6683
G1 X3.8 Y3.6 E2.2098
G1 X3.8 Y3.8 F450
G1 X-3.12 Y1.952 F3000
G92 E0
G1 X-3.12 Y3.12 E0.0854 F600
G1 X-1.952 Y3.12 E0.1709
G1 X-3.12 Y1.952 E0.2917
G1 X-3.12 Y-0.31 E0.4572
G1 X0.31 Y3.12 E0.8122
G1 X2.573 Y3.12 E0.9778
G1 X-3.12 Y-2.573 E1.5669
G1 X-3.12 Y-3.12 E1.6069
G1 X-1.404 Y-3.12 E1.7325
G1 X3.12 Y1.404 E2.2006
G1 X3.12 Y-0.858 E2.3662
G1 X1 Y-2.979 E2.5856
G1 X0.858 Y-3.12 F600
G92 E0
G1 E-1 F1800
; layer 7, Z = 1.46
G1 X4.6 Y-4.6 F3000
G1 Z1.46 F3000
G1 E0 F1800
G92 E0
G1 X4.6 Y4.6 E0.6732 F300
G1 X-4.6 Y4.6 E1.3464
G1 X-4.6 Y-4.6 E2.0196
G1 X4.4 Y-4.6 E2.6781
G1 X4.6 Y-4.6 F300
G1 X4.6 Y0.4 F300
G1 X3.8 Y-3.8 F3000
G92 E0
G1 X3.8 Y3.8 E0.5561 F450
G1 X-3.8 Y3.8 E1.1122
G1 X-3.8 Y-3.8 E1.6683
G1 X3.6 Y-3.8 E2.2098
G1 X3.8 Y-3.8 F450
G1 X1.952 Y3.12 F3000
G92 E0
G1 X3.12 Y3.12 E0.0854 F600
G1 X3.12 Y1.952 E0.1709
G1 X1.952 Y3.12 E0.2917
G1 X-0.31 Y3.12 E0.4572
G1 X3.12 Y-0.31 E0.8122
G1 X3.12 Y-2.573 E0.9778
G1 X-2.573 Y3.12 E1.5669
G1 X-3.12 Y3.12 E1.6069
G1 X-3.12 Y1.404 E1.7325
G1 X1.404 Y-3.12 E2.2006
G1 X-0.858 Y-3.12 E2.3662
G1 X-2.979 Y-1 E2.5856
G1 X-3.12 Y-0.858 F600
G92 E0
G1 E-1 F1800
; layer 8, Z = 1.66
G1 X-4.6 Y-4.6 F3000
G1 Z1.66 F3000
G1 E0 F1800
G92 E0
G1 X4.6 Y-4.6 E0.6732 F300
G1 X4.6 Y4.6 E1.3464
G1 X-4.6 Y4.6 E2.0196
G1 X-4.6 Y-4.4 E2.6781
G1 X-4.6 Y-4.6 F300
G1 X0.4 Y-4.6 F300
G1 X-3.8 Y-3.8 F3000
G92 E0
G1 X3.8 Y-3.8 E0.5561 F450
G1 X3.8 Y3.8 E1.1122
G1 X-3.8 Y3.8 E1.6683
G1 X-3.8 Y-3.6 E2.2098
G1 X-3.8 Y-3.8 F450
G1 X0.858 Y-3.12 F3000
G92 E0
G1 X3.12 Y-0.858 E0.234 F600
G1 X3.12 Y1.404 E0.3996
G1 X-1.404 Y-3.12 E0.8678
G1 X-3.12 Y-3.12 E0.9933
G1 X-3.12 Y-2.573 E1.0333
G1 X2.573 Y3.12 E1.6225
G1 X0.31 Y3.12 E1.788
G1 X-3.12 Y-0.31 E2.143
G1 X-3.12 Y1.952 E2.3086
G1 X-1.952 Y3.12 E2.4294
G1 X-3.12 Y3.12 E2.5148
G1 X-3.12 Y2.152 E2.5856
G1 X-3.12 Y1.952 F600
G92 E0
G1 E-1 F1800
; layer 9, Z = 1.86
G1 X-4.6 Y4.6 F3000
G1 Z1.86 F3000
G1 E0 F1800
G92 E0
G1 X-4.6 Y-4.6 E0.6732 F300
G1 X4.6 Y-4.6 E1.3464
G1 X4.6 Y4.6 E2.0196
G1 X-4.4 Y4.6 E2.6781
G1 X-4.6 Y4.6 F300
G1 X-4.6 Y-0.4 F300
G1 X-3.8 Y3.8 F3000
G92 E0
G1 X-3.8 Y-3.8 E0.5561 F450
G1 X3.8 Y-3.8 E1.1122
G1 X3.8 Y3.8 E1.6683
G1 X-3.6 Y3.8 E2.2098
G1 X-3.8 Y3.8 F450
G1 X-3.12 Y-0.858 F3000
G92 E0
G1 X-0.858 Y-3.12 E0.234 F600
G1 X1.404 Y-3.12 E0.3996
G1 X-3.12 Y1.404 E0.8678
G1 X-3.12 Y3.12 E0.9933
G1 X-2.573 Y3.12 E1.0333
G1 X3.12 Y-2.573 E1.6225
G1 X3.12 Y-0.31 E1.788
G1 X-0.31 Y3.12 E2.143
G1 X1.952 Y3.12 E2.3086
G1 X3.12 Y1.952 E2.4294
G1 X3.12 Y3.12 E2.5148
G1 X2.152 Y3.12 E2.5856
G1 X1.952 Y3.12 F600
G92 E0
G1 E-1 F1800
; layer 10, Z = 2.06
G1 X4.6 Y4.6 F3000
G1 Z2.06 F3000
G1 E0 F1800
G92 E0
G1 X-4.6 Y4.6 E0.6732 F300
G1 X-4.6 Y-4.6 E1.3464
G1 X4.6 Y-4.6 E2.0196
G1 X4.6 Y4.4 E2.6781
G1 X4.6 Y4.6 F300
G1 X-0.4 Y4.6 F300
G1 X3.8 Y3.8 F3000
G92 E0
G1 X-3.8 Y3.8 E0.5561 F450
G1 X-3.8 Y-3.8 E1.1122
G1 X3.8 Y-3.8 E1.6683
G1 X3.8 Y3.6 E2.2098
G1 X3.8 Y3.8 F450
G1 X-3.12 Y1.952 F3000
G92 E0
G1 X-3.12 Y3.12 E0.0854 F600
G1 X-1.952 Y3.12 E0.1709
G1 X-3.12 Y1.952 E0.2917
G1 X-3.12 Y-0.31 E0.4572
G1 X0.31 Y3.12 E0.8122
G1 X2.573 Y3.12 E0.9778
G1 X-3.12 Y-2.573 E1.5669
G1 X-3.12 Y-3.12 E1.6069
G1 X-1.404 Y-3.12 E1.7325
G1 X3.12 Y1.404 E2.2006
G1 X3.12 Y-0.858 E2.3662
G1 X1 Y-2.979 E2.5856
G1 X0.858 Y-3.12 F600
G92 E0
G1 E-1 F1800
; layer 11, Z = 2.26
G1 X4.6 Y-4.6 F3000
G1 Z2.26 F3000
G1 E0 F1800
G92 E0
G1 X4.6 Y4.6 E0.6732 F300
G1 X-4.6 Y4.6 E1.3464
G1 X-4.6 Y-4.6 E2.0196
G1 X4.4 Y-4.6 E2.6781
G1 X4.6 Y-4.6 F300
G1 X4.6 Y0.4 F300
G1 X3.8 Y-3.8 F3000
G92 E0
G1 X3.8 Y3.8 E0.5561 F450
G1 X-3.8 Y3.8 E1.1122
G1 X-3.8 Y-3.8 E1.6683
G1 X3.6 Y-3.8 E2.2098
G1 X3.8 Y-3.8 F450
G1 X1.952 Y3.12 F3000
G92 E0
G1 X3.12 Y3.12 E0.0854 F600
G1 X3.12 Y1.952 E0.1709
G1 X1.952 Y3.12 E0.2917
G1 X-0.31 Y3.12 E0.4572
G1 X3.12 Y-0.31 E0.8122
G1 X3.12 Y-2.573 E0.9778
G1 X-2.573 Y3.12 E1.5669
G1 X-3.12 Y3.12 E1.6069
G1 X-3.12 Y1.404 E1.7325
G1 X1.404 Y-3.12 E2.2006
G1 X-0.858 Y-3.12 E2.3662
G1 X-2.979 Y-1 E2.5856
G1 X-3.12 Y-0.858 F600
G92 E0
G1 E-1 F1800
; layer 12, Z = 2.46
G1 X-4.6 Y-4.6 F3000
G1 Z2.46 F3000
G1 E0 F1800
G92 E0
G1 X4.6 Y-4.6 E0.6732 F300
G1 X4.6 Y4.6 E1.3464
G1 X-4.6 Y4.6 E2.0196
G1 X-4.6 Y-4.4 E2.6781
G1 X-4.6 Y-4.6 F300
G1 X0.4 Y-4.6 F300
G1 X-3.8 Y-3.8 F3000
G92 E0
G1 X3.8 Y-3.8 E0.5561 F450
G1 X3.8 Y3.8 E1.1122
G1 X-3.8 Y3.8 E1.6683
G1 X-3.8 Y-3.6 E2.2098
G1 X-3.8 Y-3.8 F450
G1 X0.858 Y-3.12 F3000
G92 E0
G1 X3.12 Y-0.858 E0.234 F600
G1 X3.12 Y1.404 E0.3996
G1 X-1.404 Y-3.12 E0.8678
G1 X-3.12 Y-3.12 E0.9933
G1 X-3.12 Y-2.573 E1.0333
G1 X2.573 Y3.12 E1.6225
G1 X0.31 Y3.12 E1.788
G1 X-3.12 Y-0.31 E2.143
G1 X-3.12 Y1.952 E2.3086
G1 X-1.952 Y3.12 E2.4294
G1 X-3.12 Y3.12 E2.5148
G1 X-3.12 Y2.152 E2.5856
G1 X-3.12 Y1.952 F600
G92 E0
G1 E-1 F1800
; layer 13, Z = 2.66
G1 X-4.6 Y4.6 F3000
G1 Z2.66 F3000
G1 E0 F1800
G92 E0
G1 X-4.6 Y-4.6 E0.6732 F300
G1 X4.6 Y-4.6 E1.3464
G1 X4.6 Y4.6 E2.0196
G1 X-4.4 Y4.6 E2.6781
G1 X-4.6 Y4.6 F300
G1 X-4.6 Y-0.4 F300
G1 X-3.8 Y3.8 F3000
G92 E0
G1 X-3.8 Y-3.8 E0.5561 F450
G1 X3.8 Y-3.8 E1.1122
G1 X3.8 Y3.8 E1.6683
G1 X-3.6 Y3.8 E2.2098
G1 X-3.8 Y3.8 F450
G1 X-3.12 Y-0.858 F3000
G92 E0
G1 X-0.858 Y-3.12 E0.234 F600
G1 X1.404 Y-3.12 E0.3996
G1 X-3.12 Y1.404 E0.8678
G1 X-3.12 Y3.12 E0.9933
G1 X-2.573 Y3.12 E1.0333
G1 X3.12 Y-2.573 E1.6225
G1 X3.12 Y-0.31 E1.788
G1 X-0.31 Y3.12 E2.143
G1 X1.952 Y3.12 E2.3086
G1 X3.12 Y1.952 E2.4294
G1 X3.12 Y3.12 E2.5148
G1 X2.152 Y3.12 E2.5856
G1 X1.952 Y3.12 F600
G92 E0
G1 E-1 F1800
; layer 14, Z = 2.86
G1 X4.6 Y4.6 F3000
G1 Z2.86 F3000
G1 E0 F1800
G92 E0
G1 X-4.6 Y4.6 E0.6732 F300
G1 X-4.6 Y-4.6 E1.3464
G1 X4.6 Y-4.6 E2.0196
